!!!!SEGMENT: d-b--mus-ms-19600-1--001-001_scacchi-marco--missa-omnium-tonorum-pro-electione-regis-poloniae-casimiri-kyrie.krn
!!!cenid: 16xx:1768
!!!COM: Scacchi, Marco
!!!COM-rismID: pe30013433
!!!CDT: ~1605-1662
!!!CNT: Italian
!!!OPR: Missa omnium tonorum pro electione Regis Poloniae Casimiri
!!!OTL: Kyrie
!!!OMV: 001
!!!PDT:
!!!AGN: Sacred; Mass
!!!YEC: Copyright 2022 Narodowy Instytut Fryderyka Chopina (https://polishscores.org)
!!!YEM: License CC-BY-4.0 (https://creativecommons.org/licenses/by/4.0)
!!!SMS-siglum: D-B
!!!SMS-shelfmark: Mus.ms. 19600/1
!!!SMS-shelfwork: 001-001 M
!!!SMS-variant:
!!!SMS-altvar:
!!!NIFC-rismSourceID: 452507522
!!!NIFC-rismChildID: 452507522
!!!NIFC-islandoraID: none
!!!URL-pdf-islandora:
!!!URL-scan: https://digital.staatsbibliothek-berlin.de/werkansicht?PPN=PPN73488298X&PHYSID=PHYS_0003&DMDID= @EN{Scan on Staatsbibliothek zu Berlin Website} @PL{Skany w portalu Staatsbibliothek zu Berlin}
!!!IIIF:
!!!ONB-nifc: UWAGA: Kyrie na s. 5-21. Części Mszy: 1. Kyrie, 2. Et in terra, 3. Patrem, 4. Sanctus, 5. Benedictus, 6. Agnus Dei
!!!AIN: 3 alto 3 bass 1 fagot 1 organ 4 soprn 3 tenor 3 viola 2 violn
!!!key: d:dor
**kern	**fba	**kern	**text	**kern	**text	**kern	**text	**kern	**text	**kern	**text	**kern	**text	**kern	**text	**kern	**text	**kern	**text	**kern	**text	**kern	**text	**kern	**text	**kern	**text	**kern	**kern	**kern	**kern	**kern	**kern
*	*	*group4	*	*group4	*	*group4	*	*group4	*	*group3	*	*group3	*	*group3	*	*group3	*	*group2	*	*group2	*	*group2	*	*group2	*	*group2	*	*	*group1	*group1	*group1	*group1	*group1
*part20	*	*part19	*	*part18	*	*part17	*	*part16	*	*part15	*	*part14	*	*part13	*	*part12	*	*part11	*	*part10	*	*part9	*	*part8	*	*part7	*	*part6	*part5	*part4	*part3	*part2	*part1
*staff20	*	*staff19	*	*staff18	*	*staff17	*	*staff16	*	*staff15	*	*staff14	*	*staff13	*	*staff12	*	*staff11	*	*staff10	*	*staff9	*	*staff8	*	*staff7	*	*staff6	*staff5	*staff4	*staff3	*staff2	*staff1
*I"Continuo	*	*I""Coro ripieno	*	*I""Coro ripieno	*	*I""Coro ripieno	*	*I""Coro ripieno	*	*I""Coro Secondo.	*	*I""Coro Secondo.	*	*I""Coro Secondo.	*	*I""Coro Secondo.	*	*I""Coro primo.	*	*I""Coro primo.	*	*I""Coro primo.	*	*I""Coro primo.	*	*I""Coro primo.	*	*I"Fagotto	*I"Viola 3.	*I"Viola 2	*I"Viola I.	*I"Violino 2.	*I"Violino I.
*I'	*	*I'	*	*I'	*	*I'	*	*I'	*	*I'	*	*I'	*	*I'	*	*I'	*	*I'	*	*I'	*	*I'	*	*I'	*	*I'	*	*I'	*I'	*I'	*I'	*I'	*I'
*Iorgan	*	*Ibass	*	*Itenor	*	*Ialto	*	*Isoprn	*	*Ibass	*	*Itenor	*	*Ialto	*	*Isoprn	*	*Ibass	*	*Itenor	*	*Ialto	*	*Isoprn	*	*Isoprn	*	*Ifagot	*Iviola	*Iviola	*Iviola	*Ivioln	*Ivioln
*ICklav	*	*ICvox	*	*ICvox	*	*ICvox	*	*ICvox	*	*ICvox	*	*ICvox	*	*ICvox	*	*ICvox	*	*ICvox	*	*ICvox	*	*ICvox	*	*ICvox	*	*ICvox	*	*ICww	*ICstr	*ICstr	*ICstr	*ICstr	*ICstr
*IGcont	*	*IGcoro	*	*IGcoro	*	*IGcoro	*	*IGcoro	*	*IGcoro	*	*IGcoro	*	*IGcoro	*	*IGcoro	*	*IGcoro	*	*IGcoro	*	*IGcoro	*	*IGcoro	*	*IGcoro	*	*	*	*	*	*	*
*clefF4	*	*clefF4	*	*clefC4	*	*clefC3	*	*clefC1	*	*clefF4	*	*clefC4	*	*clefC3	*	*clefC1	*	*clefF4	*	*clefC4	*	*clefC3	*	*clefC1	*	*clefC1	*	*clefF4	*clefC4	*clefC3	*clefC3	*clefG2	*clefG2
*k[]	*	*k[]	*	*k[]	*	*k[]	*	*k[]	*	*k[]	*	*k[]	*	*k[]	*	*k[]	*	*k[]	*	*k[]	*	*k[]	*	*k[]	*	*k[]	*	*k[]	*k[]	*k[]	*k[]	*k[]	*k[]
*d:dor	*	*d:dor	*	*d:dor	*	*d:dor	*	*d:dor	*	*d:dor	*	*d:dor	*	*d:dor	*	*d:dor	*	*d:dor	*	*d:dor	*	*d:dor	*	*d:dor	*	*d:dor	*	*d:dor	*d:dor	*d:dor	*d:dor	*d:dor	*d:dor
*M2/1	*	*M2/1	*	*M2/1	*	*M2/1	*	*M2/1	*	*M2/1	*	*M2/1	*	*M2/1	*	*M2/1	*	*M2/1	*	*M2/1	*	*M2/1	*	*M2/1	*	*M2/1	*	*M2/1	*M2/1	*M2/1	*M2/1	*M2/1	*M2/1
*met(C)	*	*met(C)	*	*met(C)	*	*met(C)	*	*met(C)	*	*met(C)	*	*met(C)	*	*met(C)	*	*met(C)	*	*met(C)	*	*met(C)	*	*met(C)	*	*met(C)	*	*met(C)	*	*met(C)	*met(C)	*met(C)	*met(C)	*met(C)	*met(C)
*all\right	*	*all\right	*	*all\right	*	*all\right	*	*all\right	*	*all\right	*	*all\right	*	*all\right	*	*all\right	*	*all\right	*	*all\right	*	*all\right	*	*all\right	*	*all\right	*	*all\right	*all\right	*all\right	*all\right	*all\right	*all\right
=1	=1	=1	=1	=1	=1	=1	=1	=1	=1	=1	=1	=1	=1	=1	=1	=1	=1	=1	=1	=1	=1	=1	=1	=1	=1	=1	=1	=1	=1	=1	=1	=1	=1
*	*below	*	*	*	*	*	*	*	*	*	*	*	*	*	*	*	*	*	*	*	*	*	*	*	*	*	*	*	*	*	*	*	*
!LO:TX:b:t=Nach einer Handſchrift des ehemaligen Wolfenbüttelſchen Cantors H. Bockemeyer in Forckels Sam̅lung.	!	!LO:TX:a:t=Primi toni.	!	!	!	!	!	!	!	!	!	!	!	!	!	!	!	!	!	!	!	!	!	!	!	!	!	!	!	!	!	!	!
0D	#	0r	.	0r	.	0r	.	0r	.	0r	.	0r	.	0r	.	0r	.	0r	.	0r	.	0r	.	0r	.	0r	.	1.D	1.A	1.a	1.d	1.ff#X	1.aa
*	*	*	*	*	*	*	*	*	*	*	*	*	*	*	*	*	*	*	*	*	*	*	*	*	*	*	*	*2\right	*2\right	*2\right	*2\right	*2\right	*2\right
.	.	.	.	.	.	.	.	.	.	.	.	.	.	.	.	.	.	.	.	.	.	.	.	.	.	.	.	2D\	2A\	2a\	2d\	2ff#\	2aa\
=2	=2	=2	=2	=2	=2	=2	=2	=2	=2	=2	=2	=2	=2	=2	=2	=2	=2	=2	=2	=2	=2	=2	=2	=2	=2	=2	=2	=2	=2	=2	=2	=2	=2
1D	#	0r	.	0r	.	0r	.	0r	.	0r	.	0r	.	0r	.	0r	.	0r	.	0r	.	0r	.	0r	.	0r	.	1D	1A	2.a\	1d	1ff#X	1.aa
.	.	.	.	.	.	.	.	.	.	.	.	.	.	.	.	.	.	.	.	.	.	.	.	.	.	.	.	.	.	4A/	.	.	.
1BB-X	7	.	.	.	.	.	.	.	.	.	.	.	.	.	.	.	.	.	.	.	.	.	.	.	.	.	.	1BB-X	1D	1B-X	1d	1dd	.
.	6	.	.	.	.	.	.	.	.	.	.	.	.	.	.	.	.	.	.	.	.	.	.	.	.	.	.	.	.	.	.	.	2gg\
=3	=3	=3	=3	=3	=3	=3	=3	=3	=3	=3	=3	=3	=3	=3	=3	=3	=3	=3	=3	=3	=3	=3	=3	=3	=3	=3	=3	=3	=3	=3	=3	=3	=3
1FF#X	.	0r	.	0r	.	0r	.	0r	.	0r	.	0r	.	0r	.	0r	.	0r	.	0r	.	0r	.	0r	.	0r	.	1FF#X	1D	2A/	1d	1.dd	1.aa
.	.	.	.	.	.	.	.	.	.	.	.	.	.	.	.	.	.	.	.	.	.	.	.	.	.	.	.	.	.	1d	.	.	.
1GG	9 5 -	.	.	.	.	.	.	.	.	.	.	.	.	.	.	.	.	.	.	.	.	.	.	.	.	.	.	1GG	2G/	.	1B-	.	.
.	8 6 _	.	.	.	.	.	.	.	.	.	.	.	.	.	.	.	.	.	.	.	.	.	.	.	.	.	.	.	[>2E/	2g\	.	2ee\	[2gg\
=4	=4	=4	=4	=4	=4	=4	=4	=4	=4	=4	=4	=4	=4	=4	=4	=4	=4	=4	=4	=4	=4	=4	=4	=4	=4	=4	=4	=4	=4	=4	=4	=4	=4
0AA	7 #	0r	.	0r	.	0r	.	0r	.	0r	.	0r	.	0r	.	0r	.	0r	.	0r	.	0r	.	0r	.	0r	.	0AA	2E/]	2e\	2A/	2cc#X\	2gg\]
.	6 4	.	.	.	.	.	.	.	.	.	.	.	.	.	.	.	.	.	.	.	.	.	.	.	.	.	.	.	2D/	2f\	2d\	1dd	2ff\
.	5 _	.	.	.	.	.	.	.	.	.	.	.	.	.	.	.	.	.	.	.	.	.	.	.	.	.	.	.	1A	1a	1e	.	1ee
.	x #	.	.	.	.	.	.	.	.	.	.	.	.	.	.	.	.	.	.	.	.	.	.	.	.	.	.	.	.	.	.	2cc#X\	.
!!LO:PB:g=original
=5	=5	=5	=5	=5	=5	=5	=5	=5	=5	=5	=5	=5	=5	=5	=5	=5	=5	=5	=5	=5	=5	=5	=5	=5	=5	=5	=5	=5	=5	=5	=5	=5	=5
*	*	*	*	*	*ij	*	*	*	*	*	*	*	*ij	*	*	*	*	*	*	*	*ij	*	*	*	*ij	*	*	*	*	*	*	*	*
!	!	!LO:TX:a:i:t=col basso del coro  1mo:note=podkreślone	!	!LO:TX:a:i:t=col tenore del coro 1mo:note=podkreślone	!	!LO:TX:a:i:t=col alto del coro Imo:note=podkreślone	!	!LO:TX:a:i:t=col canto Imo del coro 1mo:note=podkreślone	!	!LO:TX:a:i:t=col basso del coro 1.:note=podkreślone	!	!LO:TX:a:i:t=col tenore del coro 1.:note=podkreślone	!	!LO:TX:a:i:t=col alto del primo coro:note=podkreślone	!	!LO:TX:a:i:t=col primo sopr. del coro 1.:note=podkreślone	!	!	!	!	!	!	!	!	!	!	!	!	!	!	!	!	!
[0D	#	1.Dyy	.	1.dyy	Ky-	1.f#Xyy	Ky-	1.ayy	Ky-	1.Dyy	.	1.dyy	Ky-	1.f#Xyy	Ky-	1.ayy	Ky-	1.D	.	1.d	Ky-	1.f#X	Ky-	1.dd	Ky-	1.a	Ky-	0D	2A\	2a\	1.f#X	1.dd	2ff#X\
.	.	.	.	.	.	.	.	.	.	.	.	.	.	.	.	.	.	.	.	.	.	.	.	.	.	.	.	.	1A	1d	.	.	1aa
*	*	*2\right	*	*2\right	*	*2\right	*	*2\right	*	*2\right	*	*2\right	*	*2\right	*	*2\right	*	*2\right	*	*2\right	*	*2\right	*	*2\right	*	*2\right	*	*	*	*	*	*	*
.	.	2D\yy	.	2d\yy	-ri-	2f#\yy	-ri-	2a\yy	-ri-	2D\yy	.	2d\yy	-ri-	2f#\yy	-ri-	2a\yy	-ri-	2D\	.	2d\	-ri-	2f#\	-ri-	2dd\	-ri-	2a\	-ri-	.	2A\	2d\	2f#\	2dd\	2aa\
=6	=6	=6	=6	=6	=6	=6	=6	=6	=6	=6	=6	=6	=6	=6	=6	=6	=6	=6	=6	=6	=6	=6	=6	=6	=6	=6	=6	=6	=6	=6	=6	=6	=6
!	!	!	!	!	!	!LO:SIC:v:s=0f#	!	!	!	!	!	!	!	!LO:SIC:v:s=0f#	!	!	!	!	!	!	!	!LO:SIC:v:s=0f#	!	!	!	!	!	!	!	!	!LO:SIC:v:s=0f#	!	!
0D]	.	0Dyy	.	0dyy	-e	0fyy	-e	0ayy	-e	0Dyy	.	0dyy	-e	0fyy	-e	0ayy	-e	0D	.	0d	-e	0f	-e	0dd	-e	0a	-e	0D	0A	0d	0f	0dd	0aa
=7	=7	=7	=7	=7	=7	=7	=7	=7	=7	=7	=7	=7	=7	=7	=7	=7	=7	=7	=7	=7	=7	=7	=7	=7	=7	=7	=7	=7	=7	=7	=7	=7	=7
2r	.	2ryy	.	2ryy	.	2ryy	.	2ryy	.	2ryy	.	2ryy	.	2ryy	.	2ryy	.	2r	.	2r	.	2r	.	2r	.	2r	.	2r	2r	2r	2r	2r	2r
1BB-X	.	1BB-Xyy	.	1dyy	Ky-	1fyy	Ky-	1b-Xyy	Ky-	1BB-Xyy	.	1dyy	Ky-	1fyy	Ky-	1b-yy	Ky-	1BB-X	.	1d	Ky-	1f	Ky-	1dd	Ky-	1b-X	Ky-	1BB-X	1B-X	1d	1f	1dd	1bb-X
2BB-/	.	2BB-/yy	.	2d\yy	-ri-	2g\yy	-ri-	2b-\yy	-ri-	2BB-/yy	.	2d\yy	-ri-	2g\yy	-ri-	2b-\yy	-ri-	2BB-/	.	2d\	-ri-	2g\	-ri-	2b-X\	-ri-	2b-\	-ri-	2BB-/	2B-\	2d\	2g\	2dd\	2bb-\
=8	=8	=8	=8	=8	=8	=8	=8	=8	=8	=8	=8	=8	=8	=8	=8	=8	=8	=8	=8	=8	=8	=8	=8	=8	=8	=8	=8	=8	=8	=8	=8	=8	=8
1FF#X	6	1FF#Xyy	.	2d\yy	-e	2a\yy	-e	1.ayy	-e	1FF#Xyy	.	2d\yy	-e	2a\yy	-e	1.ayy	-e	1FF#X	.	2d\	-e	2a\	-e	1.a	-e	1.a	-e	1FF#X	2d\	2d\	2a\	2dd\	1.aa
.	5	.	.	2c\yy	e-	2A/yy	e-	.	.	.	.	2c\yy	e-	2A/yy	e-	.	.	.	.	2c\	e-	2A/	e-	.	.	.	.	.	2c\	2a\	2A/	2a/	.
1GG	9 5 -	1GGyy	.	1B-Xyy	.	2d\yy	-lei-	.	.	1GGyy	.	1B-Xyy	.	2d\yy	-lei-	.	.	1GG	.	1B-X	.	2d\	-lei-	.	.	.	.	1GG	1B-X	2d\	2d\	2b-X/	.
.	8 6 _	.	.	.	.	2e\yy	.	[y2g\yy	e-	.	.	.	.	2e\yy	.	[y2g\yy	e-	.	.	.	.	2e\	.	[2g\	e-	[2g\	e-	.	.	[2e\	2e\	2g/	[2gg\
=9	=9	=9	=9	=9	=9	=9	=9	=9	=9	=9	=9	=9	=9	=9	=9	=9	=9	=9	=9	=9	=9	=9	=9	=9	=9	=9	=9	=9	=9	=9	=9	=9	=9
1AA	X	0AAyy	.	0Ayy	-lei-	2c#X\yy	.	2g\]yy	.	0AAyy	.	0Ayy	-lei-	2c#X\yy	.	2g\]yy	.	0AA	.	0A	-lei-	2c#X\	.	2g\]	.	2g\]	.	1AA	1A	2e\]	2c#X\	2e/	2gg\]
.	.	.	.	.	.	1dyy	.	2f\yy	-lei-	.	.	.	.	1dyy	.	2f\yy	-lei-	.	.	.	.	1d	.	2f\	-lei-	2f\	-lei-	.	.	2d\	2d\	4f/	2ff\
.	.	.	.	.	.	.	.	.	.	.	.	.	.	.	.	.	.	.	.	.	.	.	.	.	.	.	.	.	.	.	.	4g/	.
1AA	.	.	.	.	.	.	.	1eyy	.	.	.	.	.	.	.	1eyy	.	.	.	.	.	.	.	1a	.	1e	.	1AA	1A	1e	2d\	1a	1ee
.	.	.	.	.	.	2c#\yy	.	.	.	.	.	.	.	2c#\yy	.	.	.	.	.	.	.	2c#\	.	.	.	.	.	.	.	.	2c#\	.	.
=10	=10	=10	=10	=10	=10	=10	=10	=10	=10	=10	=10	=10	=10	=10	=10	=10	=10	=10	=10	=10	=10	=10	=10	=10	=10	=10	=10	=10	=10	=10	=10	=10	=10
0D	.	0Dyy	.	0Ayy	-son	0dyy	-son	0f#Xyy	-son	0Dyy	.	0Ayy	-son	0dyy	-son	0f#yy	-son	0D	.	0A	-son	0d	-son	0a	-son	0f#X	-son	0D	0A	0d	0d	0a	0ff#X
*	*	*	*	*	*Xij	*	*	*	*	*	*	*	*Xij	*	*	*	*	*	*	*	*Xij	*	*	*	*Xij	*	*	*	*	*	*	*	*
=11	=11	=11	=11	=11	=11	=11	=11	=11	=11	=11	=11	=11	=11	=11	=11	=11	=11	=11	=11	=11	=11	=11	=11	=11	=11	=11	=11	=11	=11	=11	=11	=11	=11
4A\	.	0r	.	0r	.	0r	.	0r	.	0r	.	0r	.	0r	.	0r	.	0r	.	0r	.	0r	.	0r	.	0r	.	2r	2r	2r	2r	1r	4aa\
8A\L	.	.	.	.	.	.	.	.	.	.	.	.	.	.	.	.	.	.	.	.	.	.	.	.	.	.	.	.	.	.	.	.	8aa\L
8A\J	.	.	.	.	.	.	.	.	.	.	.	.	.	.	.	.	.	.	.	.	.	.	.	.	.	.	.	.	.	.	.	.	8aa\J
4D\	.	.	.	.	.	.	.	.	.	.	.	.	.	.	.	.	.	.	.	.	.	.	.	.	.	.	.	4D\	4A\	4d\	4f\	.	8dd\L
.	.	.	.	.	.	.	.	.	.	.	.	.	.	.	.	.	.	.	.	.	.	.	.	.	.	.	.	.	.	.	.	.	16ff\L
.	.	.	.	.	.	.	.	.	.	.	.	.	.	.	.	.	.	.	.	.	.	.	.	.	.	.	.	.	.	.	.	.	16ee\JJ
8D\L	.	.	.	.	.	.	.	.	.	.	.	.	.	.	.	.	.	.	.	.	.	.	.	.	.	.	.	8D\L	8A\L	8d\L	8f\L	.	8ff\L
8D\J	.	.	.	.	.	.	.	.	.	.	.	.	.	.	.	.	.	.	.	.	.	.	.	.	.	.	.	8D\J	8A\J	8d\J	8f\J	.	8gg\J
8AA/L	.	.	.	.	.	.	.	.	.	.	.	.	.	.	.	.	.	.	.	.	.	.	.	.	.	.	.	8AA/L	2A\	2c\	8f\L	4ee\	2aa\
8C/	.	.	.	.	.	.	.	.	.	.	.	.	.	.	.	.	.	.	.	.	.	.	.	.	.	.	.	16C/L	.	.	16e\L	.	.
.	.	.	.	.	.	.	.	.	.	.	.	.	.	.	.	.	.	.	.	.	.	.	.	.	.	.	.	16BB/JJ	.	.	16d\JJ	.	.
8C/	.	.	.	.	.	.	.	.	.	.	.	.	.	.	.	.	.	.	.	.	.	.	.	.	.	.	.	8C/L	.	.	8e\L	8ee\L	.
8D/J	.	.	.	.	.	.	.	.	.	.	.	.	.	.	.	.	.	.	.	.	.	.	.	.	.	.	.	8D/J	.	.	8f\J	8ee\J	.
*2\right	*	*	*	*	*	*	*	*	*	*	*	*	*	*	*	*	*	*	*	*	*	*	*	*	*	*	*	*	*	*	*	*	*
2E\	5	.	.	.	.	.	.	.	.	.	.	.	.	.	.	.	.	.	.	.	.	.	.	.	.	.	.	2E\	2G\	4B/	2g\	8b/L	8r
.	.	.	.	.	.	.	.	.	.	.	.	.	.	.	.	.	.	.	.	.	.	.	.	.	.	.	.	.	.	.	.	16b/L	16gg\LL
.	.	.	.	.	.	.	.	.	.	.	.	.	.	.	.	.	.	.	.	.	.	.	.	.	.	.	.	.	.	.	.	16a/JJ	16ff\JJ
.	.	.	.	.	.	.	.	.	.	.	.	.	.	.	.	.	.	.	.	.	.	.	.	.	.	.	.	.	.	4e\	.	8b/L	8gg\L
.	6	.	.	.	.	.	.	.	.	.	.	.	.	.	.	.	.	.	.	.	.	.	.	.	.	.	.	.	.	.	.	8cc/J	8ee\J
!!LO:PB:g=original
=12	=12	=12	=12	=12	=12	=12	=12	=12	=12	=12	=12	=12	=12	=12	=12	=12	=12	=12	=12	=12	=12	=12	=12	=12	=12	=12	=12	=12	=12	=12	=12	=12	=12
1D	.	0r	.	0r	.	0r	.	0r	.	0r	.	0r	.	0r	.	0r	.	0r	.	0r	.	2r	.	0r	.	4a\	Ky-	1D	4r	4f\	1f	4dd\	4ff\
.	.	.	.	.	.	.	.	.	.	.	.	.	.	.	.	.	.	.	.	.	.	.	.	.	.	8a\	-ri-	.	2A\	8f\L	.	4dd\	4ff\
.	.	.	.	.	.	.	.	.	.	.	.	.	.	.	.	.	.	.	.	.	.	.	.	.	.	8a\	-e	.	.	8g\J	.	.	.
.	.	.	.	.	.	.	.	.	.	.	.	.	.	.	.	.	.	.	.	.	.	4d\	Ky-	.	.	8d/L	e-	.	.	4a\	.	2r	2r
.	.	.	.	.	.	.	.	.	.	.	.	.	.	.	.	.	.	.	.	.	.	.	.	.	.	16f/L	.	.	.	.	.	.	.
.	.	.	.	.	.	.	.	.	.	.	.	.	.	.	.	.	.	.	.	.	.	.	.	.	.	16e/JJ	.	.	.	.	.	.	.
.	.	.	.	.	.	.	.	.	.	.	.	.	.	.	.	.	.	.	.	.	.	8d\	-ri-	.	.	8.f/L	.	.	4A\	4A/	.	.	.
.	.	.	.	.	.	.	.	.	.	.	.	.	.	.	.	.	.	.	.	.	.	8d\	-e	.	.	.	.	.	.	.	.	.	.
.	.	.	.	.	.	.	.	.	.	.	.	.	.	.	.	.	.	.	.	.	.	.	.	.	.	16g/Jk	.	.	.	.	.	.	.
4A\	.	.	.	.	.	.	.	.	.	.	.	.	.	.	.	.	.	.	.	.	.	8A/L	e-	.	.	2a\	-lei-	4A\	4A\	2c\	2.e\	1r	1r
.	.	.	.	.	.	.	.	.	.	.	.	.	.	.	.	.	.	.	.	.	.	16c/L	.	.	.	.	.	.	.	.	.	.	.
.	.	.	.	.	.	.	.	.	.	.	.	.	.	.	.	.	.	.	.	.	.	16B/JJ	.	.	.	.	.	.	.	.	.	.	.
4AA/	.	.	.	.	.	.	.	.	.	.	.	.	.	.	.	.	.	.	.	.	.	8c\L	.	.	.	.	.	4AA/	2c\	.	.	.	.
.	.	.	.	.	.	.	.	.	.	.	.	.	.	.	.	.	.	.	.	.	.	8d\J	.	.	.	.	.	.	.	.	.	.	.
4C/	.	.	.	.	.	.	.	.	.	.	.	.	.	.	.	.	.	.	.	.	.	8e\L	.	.	.	4g\	.	4C/	.	4e\	.	.	.
.	.	.	.	.	.	.	.	.	.	.	.	.	.	.	.	.	.	.	.	.	.	8c\J	.	.	.	.	.	.	.	.	.	.	.
4D\	.	.	.	.	.	.	.	.	.	.	.	.	.	.	.	.	.	.	.	.	.	[4d\	-lei-	.	.	4f\	.	4D\	4A\	4d\	4d\	.	.
=13	=13	=13	=13	=13	=13	=13	=13	=13	=13	=13	=13	=13	=13	=13	=13	=13	=13	=13	=13	=13	=13	=13	=13	=13	=13	=13	=13	=13	=13	=13	=13	=13	=13
!	!	!	!	!LO:TX:a:i:t=col tenore del Coro 1.:note=podkreślone	!	!	!	!	!	!	!	!LO:TX:a:i:t=col tenore del Coro 1.:note=podkreślone	!	!	!	!	!	!	!	!	!	!	!	!	!	!	!	!	!	!	!	!	!
2AA/	4	2r	.	4A\yy	Ky-	1r	.	0r	.	2r	.	4A\yy	Ky-	1r	.	0r	.	2r	.	4A\	Ky-	4d\]	.	0r	.	2e/	.	2AA/	2A\	2e\	4d\	0r	0r
.	#	.	.	8A\yy	-ri-	.	.	.	.	.	.	8A\yy	-ri-	.	.	.	.	.	.	8A\	-ri-	4c#X\	.	.	.	.	.	.	.	.	4c#X\	.	.
.	.	.	.	8A\yy	-e	.	.	.	.	.	.	8A\yy	-e	.	.	.	.	.	.	8A\	-e	.	.	.	.	.	.	.	.	.	.	.	.
!	!	!LO:TX:a:i:t=col basso del Coro 1.:note=podkreślone	!	!	!	!	!	!	!	!LO:TX:a:i:t=col basso del Coro 1.:note=podkreślone	!	!	!	!	!	!	!	!	!	!	!	!	!	!	!	!	!	!	!	!	!	!	!
2D\	.	4D\yy	Ky-	8D/Lyy	e-	.	.	.	.	4D\yy	Ky-	8D/Lyy	e-	.	.	.	.	4D\	Ky-	8D/L	e-	2d\	-son	.	.	2f/	-son	4D\	2A\	2d\	2d\	.	.
.	.	.	.	16F/Lyy	.	.	.	.	.	.	.	16F/Lyy	.	.	.	.	.	.	.	16F/L	.	.	.	.	.	.	.	.	.	.	.	.	.
.	.	.	.	16E/JJyy	.	.	.	.	.	.	.	16E/JJyy	.	.	.	.	.	.	.	16E/JJ	.	.	.	.	.	.	.	.	.	.	.	.	.
.	.	8D\yy	-ri-	8.F/Lyy	.	.	.	.	.	8D\yy	-ri-	8.F/Lyy	.	.	.	.	.	8D\	-ri-	8.F/L	.	.	.	.	.	.	.	8D\L	.	.	.	.	.
.	.	8D\yy	-e	.	.	.	.	.	.	8D\yy	-e	.	.	.	.	.	.	8D\	-e	.	.	.	.	.	.	.	.	8D\J	.	.	.	.	.
.	.	.	.	16G/Jkyy	.	.	.	.	.	.	.	16G/Jkyy	.	.	.	.	.	.	.	16G/Jk	.	.	.	.	.	.	.	.	.	.	.	.	.
!	!	!	!	!	!	!LO:TX:a:i:t=coll alto del Coro 2:note=podkreślone	!	!	!	!	!	!	!	!	!	!	!	!	!	!	!	!	!	!	!	!	!	!	!	!	!	!	!
2AA/	.	8AA/Lyy	e-	2A\yy	-lei-	4e\yy	Ky-	.	.	8AA/Lyy	e-	2A\yy	-lei-	4e\	Ky-	.	.	8AA/L	e-	2A\	-lei-	8c#\L	e-	.	.	1r	.	2AA/	2A\	8c\L	8c#\L	.	.
.	.	16C/Lyy	.	.	.	.	.	.	.	16C/Lyy	.	.	.	.	.	.	.	16C/L	.	.	.	16e\L	.	.	.	.	.	.	.	16e\L	16e\L	.	.
.	.	16BB/JJyy	.	.	.	.	.	.	.	16BB/JJyy	.	.	.	.	.	.	.	16BB/JJ	.	.	.	16d\JJ	.	.	.	.	.	.	.	16d\JJ	16d\JJ	.	.
.	.	8C\Lyy	.	.	.	8e\yy	-ri-	.	.	8C\Lyy	.	.	.	8e\	-ri-	.	.	8C\L	.	.	.	8e\L	.	.	.	.	.	.	.	8e\L	8e\L	.	.
.	.	8D\Jyy	.	.	.	8e\yy	-e	.	.	8D\Jyy	.	.	.	8e\	-e	.	.	8D\J	.	.	.	8f\J	.	.	.	.	.	.	.	8f\J	8f\J	.	.
2E\	5	2E\yy	-lei-	8G/yy	-son,	8g\Lyy	e	.	.	2E\yy	-lei-	8G/yy	-son,	8g\L	e	.	.	2E\	-lei-	8G/	-son,	2g\	-lei-	.	.	.	.	2E\	8G/L	2g\	2g\	.	.
.	.	.	.	16B\LLyy	e-	16g\Lyy	.	.	.	.	.	16B\LLyy	e-	16g\L	.	.	.	.	.	16B\LL	e-	.	.	.	.	.	.	.	16G/L	.	.	.	.
.	.	.	.	16A\JJyy	.	16f\JJyy	.	.	.	.	.	16A\JJyy	.	16f\JJ	.	.	.	.	.	16A\JJ	.	.	.	.	.	.	.	.	16A/JJ	.	.	.	.
.	.	.	.	8B\Lyy	.	8g\Lyy	.	.	.	.	.	8B\Lyy	.	8g\L	.	.	.	.	.	8B\L	.	.	.	.	.	.	.	.	8B\L	.	.	.	.
.	6	.	.	8c\Jyy	.	8e\Jyy	.	.	.	.	.	8c\Jyy	.	8e\J	.	.	.	.	.	8c\J	.	.	.	.	.	.	.	.	8c\J	.	.	.	.
=14	=14	=14	=14	=14	=14	=14	=14	=14	=14	=14	=14	=14	=14	=14	=14	=14	=14	=14	=14	=14	=14	=14	=14	=14	=14	=14	=14	=14	=14	=14	=14	=14	=14
!	!	!	!	!	!	!	!	!LO:TX:a:i:t=col canto 1. del Coro 1.:note=podkreślone	!	!	!	!	!	!LO:TX:a:i:t=coll alto del Coro 1.:note=podkreślone	!	!LO:TX:a:i:t=col canto Imo del Coro 1.:note=podkreślone	!	!	!	!	!	!	!	!LO:TX:a:i:t=col canto primo:note=podkreślone	!	!	!	!	!	!LO:TX:a:i:t=colla Ima:note=podkreślone	!	!	!
2D\	.	8D\Lyy	-son,	4d\yy	-lei-	2f\yy	.	4dd\yy	.	8D\Lyy	-son,	4d\yy	-lei-	2f\yy	.	4dd\yy	.	8D\L	-son,	4d\	-lei-	2f\	.	4dd\yy	.	4dd\	.	4D\	4d\	2f\yy	2f\	4dd\	4dd\
.	.	16F\Lyy	.	.	.	.	.	.	.	16F\Lyy	.	.	.	.	.	.	.	16F\L	.	.	.	.	.	.	.	.	.	.	.	.	.	.	.
.	.	16E\JJyy	.	.	.	.	.	.	.	16E\JJyy	.	.	.	.	.	.	.	16E\JJ	.	.	.	.	.	.	.	.	.	.	.	.	.	.	.
.	.	8F\Lyy	e-	4A\yy	-son	.	.	8dd\yy	.	8F\Lyy	e-	4A\yy	-son	.	.	8dd\yy	.	8F\L	e-	4A\	-son	.	.	8dd\yy	.	8dd\	.	8.F\L	4A\	.	.	8dd\L	8dd\L
.	.	8G\Jyy	.	.	.	.	.	8a\yy	.	8G\Jyy	.	.	.	.	.	8a\yy	.	8G\J	.	.	.	.	.	8a\yy	.	8a\	.	.	.	.	.	8dd\J	8dd\J
.	.	.	.	.	.	.	.	.	.	.	.	.	.	.	.	.	.	.	.	.	.	.	.	.	.	.	.	16G\Jk	.	.	.	.	.
2AA/	.	4A\yy	-lei-	2ryy	.	4e\yy	.	8a\Lyy	.	4A\yy	-lei-	2ryy	.	4e\yy	.	8a\Lyy	.	4A\	-lei-	2r	.	4e\	.	8a\Lyy	.	8a\L	.	4A\	2r	4e\yy	4e\	8a\L	8a\L
.	.	.	.	.	.	.	.	16cc\Lyy	.	.	.	.	.	.	.	16cc\Lyy	.	.	.	.	.	.	.	16cc\Lyy	.	16cc\L	.	.	.	.	.	16cc\L	16cc\L
.	.	.	.	.	.	.	.	16b\JJyy	.	.	.	.	.	.	.	16b\JJyy	.	.	.	.	.	.	.	16b\JJyy	.	16b\JJ	.	.	.	.	.	16b\JJ	16b\JJ
!	!	!	!	!	!	!	!	!	!	!	!	!	!	!	!	!	!	!	!	!	!	!	!	!	!	!	!	!	!	!	!	!LO:TX:t=P:problem=mixed beam	!
.	.	4AA/yy	-son	.	.	2a\yy	.	8.cc\Lyy	.	4AA/yy	-son	.	.	2a\yy	.	8.cc\Lyy	.	4AA/	-son	.	.	2a\	.	8.cc\Lyy	.	8.cc\L	.	4AA/	.	2a\yy	2a\	8cc\L	8cc\L
.	.	.	.	.	.	.	.	.	.	.	.	.	.	.	.	.	.	.	.	.	.	.	.	.	.	.	.	.	.	.	.	8g/J	8b\J
.	.	.	.	.	.	.	.	16a\Jkyy	.	.	.	.	.	.	.	16a\Jkyy	.	.	.	.	.	.	.	16a\Jkyy	.	16a\Jk	.	.	.	.	.	.	.
2E\	4	2ryy	.	4e\yy	.	.	.	2b\yy	.	2ryy	.	4e\yy	.	.	.	2b\yy	.	2r	.	4e\	.	.	.	2b\yy	.	2b\	.	2r	4e\	.	.	2b\	2b\
.	#	.	.	8e\yy	.	4g#X\yy	.	.	.	.	.	8e\yy	.	4g#X\yy	.	.	.	.	.	8e\	.	4g#X\	.	.	.	.	.	.	8e\L	4g#X\yy	4g#X\	.	.
.	.	.	.	8e\yy	.	.	.	.	.	.	.	8e\yy	.	.	.	.	.	.	.	8e\	.	.	.	.	.	.	.	.	8e\J	.	.	.	.
2AA/	.	4A\yy	.	8A\Lyy	.	2a\yy	.	2cc\yy	.	4A\yy	.	8A\Lyy	.	2a\yy	.	2cc\yy	.	4A\	[Ky-	8A\L	[e]-	2a\	-[son]	2cc\yy	.	2cc\	.	4A\	8A\L	2a\yy	2a\	2cc\	2cc\
.	.	.	.	16c\Lyy	.	.	.	.	.	.	.	16c\Lyy	.	.	.	.	.	.	.	16c\L	.	.	.	.	.	.	.	.	16c\L	.	.	.	.
.	.	.	.	16B\JJyy	.	.	.	.	.	.	.	16B\JJyy	.	.	.	.	.	.	.	16B\JJ	.	.	.	.	.	.	.	.	16B\JJ	.	.	.	.
.	.	8A\yy	.	8c\Lyy	.	.	.	.	.	8A\yy	.	8c\Lyy	.	.	.	.	.	8A\	-ri-	8c\L	.	.	.	.	.	.	.	8A\L	8c\L	.	.	.	.
.	.	8A\yy	.	8A\Jyy	.	.	.	.	.	8A\yy	.	8A\Jyy	.	.	.	.	.	8A\	-e]	8A\J	.	.	.	.	.	.	.	8A\J	8A\J	.	.	.	.
!!LO:PB:g=original
=15	=15	=15	=15	=15	=15	=15	=15	=15	=15	=15	=15	=15	=15	=15	=15	=15	=15	=15	=15	=15	=15	=15	=15	=15	=15	=15	=15	=15	=15	=15	=15	=15	=15
2D\	.	8D\Lyy	e-	2d\yy	lei-	4a\yy	Ky-	1ryy	.	8D\Lyy	e-	2d\yy	lei-	4a\yy	Ky-	1ryy	.	8D\L	e-	2d\	-lei-	4a\	Ky-	1r	.	1r	.	4D\	2d\	4a\yy	4a\	1r	1r
.	.	16F\Lyy	.	.	.	.	.	.	.	16F\Lyy	.	.	.	.	.	.	.	16F\L	.	.	.	.	.	.	.	.	.	.	.	.	.	.	.
.	.	16E\JJyy	.	.	.	.	.	.	.	16E\JJyy	.	.	.	.	.	.	.	16E\JJ	.	.	.	.	.	.	.	.	.	.	.	.	.	.	.
.	.	8F\Lyy	.	.	.	8a\yy	-ri-	.	.	8F\Lyy	.	.	.	8a\yy	-ri-	.	.	8F\L	.	.	.	8a\	-ri-	.	.	.	.	8F\L	.	8a\Lyy	8a\L	.	.
.	.	8G\Jyy	.	.	.	8a\yy	-e	.	.	8G\Jyy	.	.	.	8a\yy	-e	.	.	8G\J	.	.	.	8a\	-e	.	.	.	.	8G\J	.	8a\Jyy	8a\J	.	.
2AA/	.	2A\yy	.	8c\yy	-son,	8e\Lyy	e-	.	.	2A\yy	.	8c\yy	-son,	8e\Lyy	e-	.	.	2A\	.	8c\	-son,	8e\L	e-	.	.	.	.	2A\	8c\L	8e\Lyy	8e\L	.	.
.	.	.	.	16c\LLyy	e-	16e\Lyy	.	.	.	.	.	16c\LLyy	e-	16e\Lyy	.	.	.	.	.	16c\LL	e-	16e\L	.	.	.	.	.	.	16c\L	16e\Lyy	16e\L	.	.
.	.	.	.	16B\JJyy	.	16d\JJyy	.	.	.	.	.	16B\JJyy	.	16d\JJyy	.	.	.	.	.	16B\JJ	.	16d\JJ	.	.	.	.	.	.	16B\JJ	16d\JJyy	16d\JJ	.	.
.	.	.	.	8c\Lyy	.	8e\Lyy	.	.	.	.	.	8c\Lyy	.	8e\Lyy	.	.	.	.	.	8c\L	.	8e\L	.	.	.	.	.	.	8c\L	8.e\Lyy	8.e\L	.	.
.	.	.	.	8d\Jyy	.	8f\Jyy	.	.	.	.	.	8d\Jyy	.	8f\Jyy	.	.	.	.	.	8d\J	.	8f\J	.	.	.	.	.	.	8d\J	.	.	.	.
.	.	.	.	.	.	.	.	.	.	.	.	.	.	.	.	.	.	.	.	.	.	.	.	.	.	.	.	.	.	16f\Jkyy	16f\Jk	.	.
*	*	*	*	*	*	*	*	*	*	*	*	*	*	*	*	*	*	*	*	*	*	*	*	*	*ij	*	*	*	*	*	*	*	*
!	!	!	!	!	!	!	!	!	!	!	!	!	!	!	!	!	!	!	!	!	!	!	!	!	!	!	!	!	!	!	!	!LO:TX:a:i:t=col primo:note=podkreślone	!
2E\	.	2E\yy	.	4e\yy	-lei-	8g\yy	.	4ee\yy	Ky-	2E\yy	.	4e\yy	-lei-	8g\yy	.	4ee\yy	Ky-	2E\	.	4e\	-lei-	8g\	.	4ee\	Ky-	4ee\	Ky-	2E\	4e\	2g\yy	2g\	4ee\yy	4ee\
.	.	.	.	.	.	8g\yy	-lei-	.	.	.	.	.	.	8g\yy	-lei-	.	.	.	.	.	.	8g\	-lei-	.	.	.	.	.	.	.	.	.	.
.	.	.	.	4c\yy	-son	8g\yy	-son,	8ee\yy	-ri-	.	.	4c\yy	-son	8g\yy	-son,	8ee\yy	-ri-	.	.	4c\	-son	8g\	-son,	8ee\	-ri-	8ee\	-ri-	.	4c\	.	.	8ee\Lyy	8ee\L
.	.	.	.	.	.	8g\yy	e-	8ee\yy	-e	.	.	.	.	8g\yy	e-	8ee\yy	-e	.	.	.	.	8g\	e-	8ee\	-e	8ee\	-e	.	.	.	.	8ee\Jyy	8ee\J
2G\	.	2G\yy	-lei-	2ryy	.	8d\Lyy	-lei-	8b\Lyy	e-	2G\yy	-lei-	2ryy	.	8d\Lyy	-lei-	8b\Lyy	e-	2G\	-lei-	2r	.	8d\L	-lei-	8b\L	e-	8b\L	e-	2G\	2r	8d\Lyy	8d\L	8b/Lyy	8b/L
.	.	.	.	.	.	16d\Lyy	.	16b\Lyy	.	.	.	.	.	16d\Lyy	.	16b\Lyy	.	.	.	.	.	16d\L	.	16b\L	.	16b\L	.	.	.	16d\Lyy	16d\L	16b/Lyy	16b/L
.	.	.	.	.	.	16c\JJyy	.	16a\JJyy	.	.	.	.	.	16c\JJyy	.	16a\JJyy	.	.	.	.	.	16c\JJ	.	16a\JJ	.	16a\JJ	.	.	.	16c\JJyy	16c\JJ	16a/JJyy	16a/JJ
.	.	.	.	.	.	8d\Lyy	.	8b\Lyy	.	.	.	.	.	8d\Lyy	.	8b\Lyy	.	.	.	.	.	8d\L	.	8b\L	.	8b\L	.	.	.	8d\Lyy	8d\L	8b/Lyy	8b/L
.	.	.	.	.	.	8e\Jyy	.	8cc\Jyy	.	.	.	.	.	8e\Jyy	.	8cc\Jyy	.	.	.	.	.	8e\J	.	8cc\J	.	8cc\J	.	.	.	8e\Jyy	8e\J	8cc/Jyy	8cc/J
=16	=16	=16	=16	=16	=16	=16	=16	=16	=16	=16	=16	=16	=16	=16	=16	=16	=16	=16	=16	=16	=16	=16	=16	=16	=16	=16	=16	=16	=16	=16	=16	=16	=16
2D\	.	2D\	son	4d\yy	Ky-	4f\yy	.	8dd\Lyy	.	2D\	son.	4d\yy	Ky-	4f\yy	.	8dd\Lyy	.	2D\	-son	4d\	Ky-	4f\	.	8dd\L	.	8dd\L	.	2D\	4d\	2f\yy	2f\	8dd\Lyy	8dd\L
.	.	.	.	.	.	.	.	16a\Lyy	.	.	.	.	.	.	.	16a\Lyy	.	.	.	.	.	.	.	16a\L	.	16a\L	.	.	.	.	.	16a\Lyy	16a\L
.	.	.	.	.	.	.	.	16g\JJyy	.	.	.	.	.	.	.	16g\JJyy	.	.	.	.	.	.	.	16g\JJ	.	16g\JJ	.	.	.	.	.	16g\JJyy	16g\JJ
.	.	.	.	8d\yy	-ri-	4f\yy	-son,	8a\Lyy	.	.	.	8d\yy	-ri-	4f\yy	-son,	8a\Lyy	.	.	.	8d\	-ri-	4f\	-son,	8a\L	.	8a\L	.	.	8d\L	.	.	8a\Lyy	8a\L
.	.	.	.	8d\yy	-e	.	.	8b\Jyy	.	.	.	8d\yy	-e	.	.	8b\Jyy	.	.	.	8d\	-e	.	.	8b\J	.	8b\J	.	.	8d\J	.	.	8b\Jyy	8b\J
2AA/	.	2r	.	8A\yy	e-	4a\yy	Ky-	2cc\yy	-lei-	2r	.	8A\yy	e-	4a\yy	Ky-	2cc\yy	-lei-	2r	.	8A\	e-	4a\	Ky-	2cc\	-lei-	2cc\	-lei-	2r	8A/L	4a\yy	4a\	2cc\yy	2cc\
.	.	.	.	16A/LLyy	.	.	.	.	.	.	.	16A/LLyy	.	.	.	.	.	.	.	16A/LL	.	.	.	.	.	.	.	.	16A/L	.	.	.	.
.	.	.	.	16G/JJyy	.	.	.	.	.	.	.	16G/JJyy	.	.	.	.	.	.	.	16G/JJ	.	.	.	.	.	.	.	.	16G/JJ	.	.	.	.
.	.	.	.	8.A/Lyy	.	8a\yy	-ri-	.	.	.	.	8.A/Lyy	.	8a\yy	-ri-	.	.	.	.	8.A/L	.	8a\	-ri-	.	.	.	.	.	8.A/L	8a\Lyy	8a\L	.	.
.	.	.	.	.	.	8a\yy	-e	.	.	.	.	.	.	8a\yy	-e	.	.	.	.	.	.	8a\	-e	.	.	.	.	.	.	8a\Jyy	8a\J	.	.
.	.	.	.	16B/Jkyy	.	.	.	.	.	.	.	16B/Jkyy	.	.	.	.	.	.	.	16B/Jk	.	.	.	.	.	.	.	.	16B/Jk	.	.	.	.
2C/	.	1r	.	8c\Lyy	.	8e\Lyy	e-	2g\	son.	1r	.	8c\Lyy	.	8e\Lyy	e-	2g\	-son	1r	.	8c\L	.	8e\L	e-	2g\	-son,	4.g\	-son,	1r	8c\L	8e\Lyy	8e\L	4.g/	4g/
*	*	*	*	*	*	*	*	*	*	*	*	*	*	*	*	*	*	*	*	*	*	*	*	*	*Xij	*	*	*	*	*	*	*	*
.	.	.	.	16c\Lyy	.	16e\Lyy	.	.	.	.	.	16c\Lyy	.	16e\Lyy	.	.	.	.	.	16c\L	.	16e\L	.	.	.	.	.	.	16c\L	16e\Lyy	16e\L	.	.
.	.	.	.	16B\JJyy	.	16d\JJyy	.	.	.	.	.	16B\JJyy	.	16d\JJyy	.	.	.	.	.	16B\JJ	.	16d\JJ	.	.	.	.	.	.	16B\JJ	16d\JJyy	16d\JJ	.	.
.	.	.	.	8c\Lyy	.	8e\Lyy	.	.	.	.	.	8c\Lyy	.	8e\Lyy	.	.	.	.	.	8c\L	.	8e\L	.	.	.	.	.	.	8c\L	8e\Lyy	8e\L	.	4g/
.	.	.	.	8d\Jyy	.	8f\Jyy	.	.	.	.	.	8d\Jyy	.	8f\Jyy	.	.	.	.	.	8d\J	.	8f\J	.	.	.	8cc\	e-	.	8d\J	8f\Jyy	8f\J	8b/	.
*	*	*	*	*	*	*	*	*	*	*	*	*	*ij	*	*	*	*	*	*	*	*	*	*	*	*	*	*	*	*	*	*	*	*
4.E\	.	.	.	4e\	-[lei-	4g\	lei-	2r	.	.	.	4e\	-lei-	4g\	-lei-	2r	.	.	.	4.e\	.	8g\L	.	2r	.	2b\	-lei-	.	4e\	4g\yy	4g\	2b\	2r
.	.	.	.	.	.	.	.	.	.	.	.	.	.	.	.	.	.	.	.	.	.	8a\J	.	.	.	.	.	.	.	.	.	.	.
.	.	.	.	4E/	-son]	4g\	-son	.	.	.	.	4E/	-son	4g\	-son	.	.	.	.	.	.	[4g\	-lei-	.	.	.	.	.	4E/	4g\yy	4g\	.	.
*	*	*	*	*	*	*	*	*	*	*	*	*	*Xij	*	*	*	*	*	*	*	*	*	*	*	*	*	*	*	*	*	*	*	*
8D\	.	.	.	.	.	.	.	.	.	.	.	.	.	.	.	.	.	.	.	8d\	.	.	.	.	.	.	.	.	.	.	.	.	.
=17	=17	=17	=17	=17	=17	=17	=17	=17	=17	=17	=17	=17	=17	=17	=17	=17	=17	=17	=17	=17	=17	=17	=17	=17	=17	=17	=17	=17	=17	=17	=17	=17	=17
4C/	6	0r	.	0r	.	0r	.	0r	.	0r	.	0r	.	0r	.	0r	.	0r	.	4c\	.	4g\]	.	0r	.	2a\	.	0r	0r	0r	0r	2a\	0r
4D/	.	.	.	.	.	.	.	.	.	.	.	.	.	.	.	.	.	.	.	4d\	.	2f\	.	.	.	.	.	.	.	.	.	.	.
4BB/	6	.	.	.	.	.	.	.	.	.	.	.	.	.	.	.	.	.	.	4B\	.	.	.	.	.	2g\	.	.	.	.	.	2r	.
4C/	.	.	.	.	.	.	.	.	.	.	.	.	.	.	.	.	.	.	.	4c\	.	2e\	.	.	.	.	.	.	.	.	.	.	.
4AA/	6	.	.	.	.	.	.	.	.	.	.	.	.	.	.	.	.	.	.	4A\	.	.	.	.	.	2f\	.	.	.	.	.	1r	.
4BB-X/	.	.	.	.	.	.	.	.	.	.	.	.	.	.	.	.	.	.	.	4B-X\	.	2d\	.	.	.	.	.	.	.	.	.	.	.
4GG/	6	.	.	.	.	.	.	.	.	.	.	.	.	.	.	.	.	.	.	4G\	.	.	.	.	.	2e\	-son	.	.	.	.	.	.
4AA/	#	.	.	.	.	.	.	.	.	.	.	.	.	.	.	.	.	.	.	4A\	-lei-	4c#X\	.	.	.	.	.	.	.	.	.	.	.
!!LO:PB:g=original
=18	=18	=18	=18	=18	=18	=18	=18	=18	=18	=18	=18	=18	=18	=18	=18	=18	=18	=18	=18	=18	=18	=18	=18	=18	=18	=18	=18	=18	=18	=18	=18	=18	=18
!	!	!LO:TX:a:i:t=col Basso del Coro ſecundo:note=podkreślone	!	!	!	!	!	!	!	!LO:TX:a:i:t=col basso del Coro 1mo:note=podkreślone	!	!	!	!LO:TX:a:i:t=coll alto del 1mo Coro:note=podkreślone	!	!	!	!	!	!	!	!	!	!LO:TX:a:i:t=col primo:note=podkreślone	!	!	!	!	!	!	!	!	!
2D\	.	4D\yy	Ky-	2r	.	4f\	.	2r	.	4D\yy	Ky-	2r	.	8d\yy	-son,	2r	.	4D\	Ky-	2A\	-son,	8d\	-son,	2ryy	.	2r	.	4D\	2r	4a\	4f\	2r	2r
.	.	.	.	.	.	.	.	.	.	.	.	.	.	8f\yy	Ky-	.	.	.	.	.	.	8f\	Ky-	.	.	.	.	.	.	.	.	.	.
.	.	8D\yy	-ri-	.	.	8f\	.	.	.	8D\yy	-ri-	.	.	8f\yy	-ri-	.	.	8D\	-ri-	.	.	8f\	-ri-	.	.	.	.	8D\L	.	8a\	8f\	.	.
.	.	8D\yy	-e	.	.	8f\	.	.	.	8D\yy	-e	.	.	8f\yy	-e	.	.	8D\	-e	.	.	8f\	-e	.	.	.	.	8D\J	.	8a\	8f\	.	.
!	!	!	!	!LO:TX:a:i:t=col tenore del Coro 2do:note=podkreślone:note=podkreślone	!	!LO:TX:a:i:t=coll alto del 1mo Coro:note=podkreślone	!	!LO:TX:a:i:t=col canto del Coro 2do:note=podkreślone	!	!	!	!	!	!	!	!	!	!	!	!	!	!	!	!	!	!	!	!	!	!	!	!	!
4AA/	.	8AA/Lyy	e-	4c\yy	.	8c\Lyy	e-	4ee\yy	Ky-	8AA/Lyy	e-	4c\	[Ky-	8c\Lyy	e-	4ee\	Ky-	8AA/L	e-	8r	.	8c\L	e-	4ee\yy	Ky-	4ee\	Ky-	4AA/	4c\	8a\L	8d\L	4ee\	4ee\
.	.	16C/Lyy	.	.	.	16e\Lyy	.	.	.	16C/Lyy	.	.	.	16e\Lyy	.	.	.	16C/L	.	8c\	Ky-	16e\L	.	.	.	.	.	.	.	16e\L	16e\L	.	.
.	.	16BB/JJyy	.	.	.	16d\JJyy	.	.	.	16BB/JJyy	.	.	.	16d\JJyy	.	.	.	16BB/JJ	.	.	.	16d\JJ	.	.	.	.	.	.	.	16d\JJ	16d\JJ	.	.
!	!	!	!	!	!	!	!	!	!	!	!	!	!	!	!	!	!	!	!	!	!	!	!	!	!	!	!	!	!	!LO:TX:a:i:t=colla prima:note=podkreślone	!	!	!
4C/	.	8.C/Lyy	.	8c\yy	.	8.e\Lyy	.	8ee\yy	-ri-	8.C/Lyy	.	8c\	-ri-	8.e\Lyy	.	8ee\	-ri-	8.C/L	.	8c\	-ri-	8.e\L	.	8ee\yy	-ri-	8ee\	-ri-	4C/	8c\L	8.e\Lyy	8.e\L	8ee\L	8ee\L
.	.	.	.	8c\yy	.	.	.	8ee\yy	-e	.	.	8c\	-e]	.	.	8ee\	-e	.	.	8c\	-e	.	.	8ee\yy	-e	8ee\	-e	.	8c\J	.	.	8ee\J	8ee\J
.	.	16D/Jkyy	.	.	.	16f\Jkyy	.	.	.	16D/Jkyy	.	.	.	16f\Jkyy	.	.	.	16D/Jk	.	.	.	16f\Jk	.	.	.	.	.	.	.	16f\Jkyy	16f\Jk	.	.
!	!	!	!	!	!	!	!	!	!	!	!	!LO:TX:a:i:t=col tenore del Coro 1mo:note=podkreślone	!	!	!	!	!	!	!	!	!	!	!	!	!	!	!	!	!	!	!	!LO:TX:a:i:t=col pmo:note=podkreślone	!
2E\	5	2E\yy	.	8G/yy	e-	2g\yy	.	8b\Lyy	e-	2E\yy	.	8G/yy	e-	2g\yy	.	8b\L	e-	2E\	.	8G/	e-	2g\	.	8b\Lyy	e-	8b\L	e-	2E\	8G/L	2g\yy	2g\	8b/Lyy	8b/L
.	.	.	.	16G/LLyy	.	.	.	16b\Lyy	.	.	.	16G/LLyy	.	.	.	16b\L	.	.	.	16G/LL	.	.	.	16b\Lyy	.	16b\L	.	.	16G/L	.	.	16b/Lyy	16b/L
.	.	.	.	16F#X/JJyy	.	.	.	16a\JJyy	.	.	.	16F#X/JJyy	.	.	.	16a\JJ	.	.	.	16F#X/JJ	.	.	.	16a\JJyy	.	16a\JJ	.	.	16F#X/JJ	.	.	16a/JJyy	16a/JJ
.	.	.	.	8G/Lyy	.	.	.	8b\Lyy	.	.	.	8G/Lyy	.	.	.	8b\L	.	.	.	8G/L	.	.	.	8b\Lyy	.	8b\L	.	.	8G/L	.	.	8b\Lyy	8b\L
.	6	.	.	8A/Jyy	.	.	.	8cc#X\Jyy	.	.	.	8A/Jyy	.	.	.	8cc#X\J	.	.	.	8A/J	.	.	.	8cc#X\Jyy	.	8cc#X\J	.	.	8A/	.	.	8cc#X\Jyy	8cc#X\J
2D\	5	2D\yy	-lei-	8B\Lyy	.	2f\yy	-lei-	2dd\yy	-lei-	2D\yy	-lei-	8B\Lyy	.	2f\yy	-lei-	2dd\	-lei-	2D\	-lei-	8B\L	.	2f\	-lei-	2dd\yy	-lei-	2dd\	-lei-	2D\	8B/	2f\yy	2f\	2dd\yy	2dd\
.	.	.	.	8A\Jyy	.	.	.	.	.	.	.	8A\Jyy	.	.	.	.	.	.	.	8A\J	.	.	.	.	.	.	.	.	8A/J	.	.	.	.
.	6	.	.	[y4A\yy	-lei-	.	.	.	.	.	.	[y4A\yy	-lei-	.	.	.	.	.	.	[4A\	-lei-	.	.	.	.	.	.	.	[>4A/	.	.	.	.
=19	=19	=19	=19	=19	=19	=19	=19	=19	=19	=19	=19	=19	=19	=19	=19	=19	=19	=19	=19	=19	=19	=19	=19	=19	=19	=19	=19	=19	=19	=19	=19	=19	=19
2E\	4	2E\yy	-[son]	4A\]yy	.	2e\yy	-son	2b\yy	-son	2E\	-[son]	4A\]yy	.	2e\yy	-son	2b\	-son	2E\	-son	4A\]	.	2e\	-son	2b\yy	-son	2b\	-son	2E\	4A/]	2e\yy	2e\	2b\yy	2b\
.	#	.	.	4G#X\yy	-son	.	.	.	.	.	.	4G#X\yy	-son	.	.	.	.	.	.	4G#X\	-son	.	.	.	.	.	.	.	4G#X/	.	.	.	.
*	*	*	*	*	*ij	*	*	*	*	*	*	*	*	*	*	*	*	*	*ij	*	*ij	*	*	*	*	*	*	*	*	*	*	*	*
4AA/	.	4AA/yy	.	4A\yy	Ky-	4e\yy	Ky-	4a\yy	Ky-	4AA/	.	4A\yy	Ky-	4e\yy	Ky-	4a\	Ky-	4A\	Ky-	4A\	Ky-	4e\	Ky-	4.a\yy	Ky-	4.a\	Ky-	4AA/	4A/	4e\yy	4e\	4.a/yy	4.a/
4FF/	.	4FF/yy	.	4A\yy	-ri-	4f\yy	-ri-	4cc\yy	-ri-	4FF/	.	4A\yy	-ri-	4f\yy	-ri-	4cc\	-ri-	4F\	-ri-	4A\	-ri-	4f\	-ri-	.	.	.	.	4F\	4A/	4f\yy	4f\	.	.
.	.	.	.	.	.	.	.	.	.	.	.	.	.	.	.	.	.	.	.	.	.	.	.	8b\yy	-ri-	8b\	-ri-	.	.	.	.	8b/yy	8b/
!	!	!	!	!	!	!	!	!	!	!	!	!	!	!	!	!LO:TX:a:i:t=col C. 1mo del Coro 1.:note=podkreślone	!	!	!	!	!	!	!	!	!	!	!	!	!	!	!	!	!
4F\	.	4F\yy	.	4A\yy	-e	4f\yy	-e	4cc\yy	-e	4F\	.	4A\yy	-e	4f\yy	-e	4cc\yy	-e	4F\	-e	4A\	-e	4f\	-e	4cc\yy	-e	4cc\	-e	4FF/	4A/	4f\yy	4f\	4cc\yy	4cc\
4F\	.	4F\yy	.	4A\yy	e-	2a\yy	e-	4cc\yy	e-	4F\	.	4A\yy	e	2a\yy	e-	4cc\yy	e-	4F\	e-	4A\	e-	2a\	e-	4cc\yy	e-	4cc\	e-	4FF/	4A/	2a\yy	2a\	4cc\yy	4cc\
*	*	*	*	*	*	*	*	*	*	*	*	*	*	*	*	*	*	*	*Xij	*	*	*	*	*	*	*	*	*	*	*	*	*	*
2C#X\	6	2C#X\yy	.	4A\yy	-[lei-	.	.	[y2ee\yy	-lei-	2C#X\	.	4A\yy	-[lei-	.	.	[y2ee\yy	-lei-	2C#X/	.	4A\	-[lei-	.	.	[y2ee\yy	-lei-	[2ee\	-lei-	2C#X\	4A/	.	.	[y2ee\yy	[2ee\
.	.	.	.	4E/yy	-son]	4g\yy	.	.	.	.	.	4E/yy	-son]	4g\yy	.	.	.	.	.	4E/	-son]	4g\	.	.	.	.	.	.	4E/	4a\yy	4a\	.	.
=20	=20	=20	=20	=20	=20	=20	=20	=20	=20	=20	=20	=20	=20	=20	=20	=20	=20	=20	=20	=20	=20	=20	=20	=20	=20	=20	=20	=20	=20	=20	=20	=20	=20
2D\	9	2D\yy	.	4ryy	.	4.f\yy	.	4ee\]yy	.	2D\	.	4ryy	.	4.f\yy	.	4ee\]yy	.	2D\	.	4r	.	4.f\	.	4ee\]yy	.	4ee\]	.	2D\	4r	4.f\yy	4.f\	4ee\]yy	4ee\]
.	8	.	.	2A\yy	Ky-	.	.	2dd\yy	.	.	.	2A\yy	Ky-	.	.	2dd\yy	.	.	.	2A\	Ky-	.	.	2dd\yy	.	2dd\	.	.	2A\	.	.	2dd\yy	2dd\
.	.	.	.	.	.	8e\yy	.	.	.	.	.	.	.	8e\yy	.	.	.	.	.	.	.	8e\	.	.	.	.	.	.	.	8e\yy	8e\	.	.
2FF#X/	6	2FF#X/yy	.	.	.	4d\yy	.	.	.	2FF#X/	.	.	.	4d\yy	.	.	.	2FF#X/	.	.	.	4d\	.	.	.	.	.	2FF#X/	.	4d\yy	4d\	.	.
.	.	.	.	4A\yy	-ri-	2a\yy	.	4cc\yy	.	.	.	4A\yy	-ri-	2a\yy	.	4cc\yy	.	.	.	4A\	-ri-	2a\	.	4cc\yy	.	4cc\	.	.	4A\	2a\yy	2a\	4cc\yy	4cc\
1GG	9 5	1GGyy	.	2D/yy	-e	.	.	1b-Xyy	.	1GG	.	2D/yy	-e	.	.	1b-Xyy	.	1GG	.	2D/	-e	.	.	1b-Xyy	.	1b-X	.	1GG	2d\	.	.	1b-Xyy	1b-X
.	.	.	.	.	.	4g\yy	.	.	.	.	.	.	.	4g\yy	.	.	.	.	.	.	.	4g\	.	.	.	.	.	.	.	4g\yy	4g\	.	.
.	.	.	.	4d\yy	e-	[y2g\yy	.	.	.	.	.	4d\yy	e-	[y2g\yy	.	.	.	.	.	4d\	e-	(2g\	.	.	.	.	.	.	4d\	[y2g\yy	[2g\	.	.
*	*	*	*	*	*Xij	*	*	*	*	*	*	*	*	*	*	*	*	*	*	*	*Xij	*	*	*	*	*	*	*	*	*	*	*	*
.	8 6	.	.	4e\yy	.	.	.	.	.	.	.	4e\yy	.	.	.	.	.	.	.	4e\	.	.	.	.	.	.	.	.	4e\	.	.	.	.
!!LO:PB:g=original
=21	=21	=21	=21	=21	=21	=21	=21	=21	=21	=21	=21	=21	=21	=21	=21	=21	=21	=21	=21	=21	=21	=21	=21	=21	=21	=21	=21	=21	=21	=21	=21	=21	=21
!	!	!	!	!	!	!	!	!	!	!	!	!	!	!	!	!	!	!	!	!	!	!LO:TX:t=P:problem=brak zakończenia łuku	!	!	!	!	!	!	!	!	!	!	!
0AA	7 #	0AA	lei	2c#X\	.	2g\]	.	0a	-[lei-	0AA	lei-	2c#X\	.	2g\]	.	0a	.	0AA	-lei-	2c#X\	.	0e)	-lei-	0a	-lei-	0a	-lei-	0AA	2c#\	2g\]yy	2g\]	2a/	0a
.	6 4	.	.	1d	.	2f\	.	.	.	.	.	1d	.	2f\	.	.	.	.	.	1d	.	.	.	.	.	.	.	.	1d	2f\yy	2f\	2aa\	.
.	5 4	.	.	.	.	1e	.	.	.	.	.	.	.	1e	.	.	.	.	.	.	.	.	.	.	.	.	.	.	.	1eyy	1e	1aa	.
.	_ #	.	.	2c#\	.	.	.	.	.	.	.	2c#X\	.	.	.	.	.	.	.	2c#X\	.	.	.	.	.	.	.	.	2c#X\	.	.	.	.
=22	=22	=22	=22	=22	=22	=22	=22	=22	=22	=22	=22	=22	=22	=22	=22	=22	=22	=22	=22	=22	=22	=22	=22	=22	=22	=22	=22	=22	=22	=22	=22	=22	=22
!	!	!	!	!	!	!	!	!	!	!	!	!	!	!	!	!	!	!LO:SIC:v:s=0D	!	!	!	!	!	!	!	!	!	!	!	!	!	!	!
0Dl	X	0Dl	-[son]	0dl	-[son]	0f#Xl	-[son]	0al	-son]	0Dl	-[son]	0dl	-[son]	0f#Xl	-[son]	0al	-[son]	0El	-[son]	0dl	-[son]	0f#Xl	-[son]	0al	-[son]	0al	-[son]	0Dl	0dl	0f#Xl	0f#Xl	0aal	0al
=23||	=23||	=23||	=23||	=23||	=23||	=23||	=23||	=23||	=23||	=23||	=23||	=23||	=23||	=23||	=23||	=23||	=23||	=23||	=23||	=23||	=23||	=23||	=23||	=23||	=23||	=23||	=23||	=23||	=23||	=23||	=23||	=23||	=23||
*k[b-]	*	*k[b-]	*	*k[b-]	*	*k[b-]	*	*k[b-]	*	*k[b-]	*	*k[b-]	*	*k[b-]	*	*k[b-]	*	*k[b-]	*	*k[b-]	*	*k[b-]	*	*k[b-]	*	*k[b-]	*	*k[b-]	*k[b-]	*k[b-]	*k[b-]	*k[b-]	*k[b-]
*M2/1	*	*M2/1	*	*M2/1	*	*M2/1	*	*M2/1	*	*M2/1	*	*M2/1	*	*M2/1	*	*M2/1	*	*M2/1	*	*M2/1	*	*M2/1	*	*M2/1	*	*M2/1	*	*M2/1	*M2/1	*M2/1	*M2/1	*M2/1	*M2/1
*met(C)	*	*met(C)	*	*met(C)	*	*met(C)	*	*met(C)	*	*met(C)	*	*met(C)	*	*met(C)	*	*met(C)	*	*met(C)	*	*met(C)	*	*met(C)	*	*met(C)	*	*met(C)	*	*met(C)	*met(C)	*met(C)	*met(C)	*met(C)	*met(C)
*	*above	*	*	*	*	*	*	*	*	*	*	*	*	*	*	*	*	*	*	*	*	*	*	*	*	*	*	*	*	*	*	*	*
!LO:TX:b:i:t=Secundi Toni:note=podkreślone	!	!	!	!	!	!	!	!	!	!	!	!	!	!	!	!	!	!	!	!	!	!	!	!	!	!	!	!	!	!	!	!	!
2BB-/	.	0r	.	0r	.	0r	.	0r	.	0r	.	0r	.	0r	.	0r	.	0r	.	0r	.	0r	.	0r	.	0r	.	2BB-/	1F	2d\	1f	4ff\	4dd\
.	.	.	.	.	.	.	.	.	.	.	.	.	.	.	.	.	.	.	.	.	.	.	.	.	.	.	.	.	.	.	.	8ff\L	8dd\L
.	.	.	.	.	.	.	.	.	.	.	.	.	.	.	.	.	.	.	.	.	.	.	.	.	.	.	.	.	.	.	.	8dd\J	8dd\J
2AA/	6	.	.	.	.	.	.	.	.	.	.	.	.	.	.	.	.	.	.	.	.	.	.	.	.	.	.	2AA/	.	2c\	.	4.cc\	8ff\L
.	.	.	.	.	.	.	.	.	.	.	.	.	.	.	.	.	.	.	.	.	.	.	.	.	.	.	.	.	.	.	.	.	8cc\
.	.	.	.	.	.	.	.	.	.	.	.	.	.	.	.	.	.	.	.	.	.	.	.	.	.	.	.	.	.	.	.	.	8ff\
.	.	.	.	.	.	.	.	.	.	.	.	.	.	.	.	.	.	.	.	.	.	.	.	.	.	.	.	.	.	.	.	8cc\	8ee\J
4BB-/	.	.	.	.	.	.	.	.	.	.	.	.	.	.	.	.	.	.	.	.	.	.	.	.	.	.	.	4BB-/	1F	1B-	1f	4dd\	8dd\L
.	.	.	.	.	.	.	.	.	.	.	.	.	.	.	.	.	.	.	.	.	.	.	.	.	.	.	.	.	.	.	.	.	8ff\
4C/	.	.	.	.	.	.	.	.	.	.	.	.	.	.	.	.	.	.	.	.	.	.	.	.	.	.	.	4C/	.	.	.	4cc\	8ee\
.	.	.	.	.	.	.	.	.	.	.	.	.	.	.	.	.	.	.	.	.	.	.	.	.	.	.	.	.	.	.	.	.	8gg\J
*	*below	*	*	*	*	*	*	*	*	*	*	*	*	*	*	*	*	*	*	*	*	*	*	*	*	*	*	*	*	*	*	*	*
4D\	6	.	.	.	.	.	.	.	.	.	.	.	.	.	.	.	.	.	.	.	.	.	.	.	.	.	.	4D\	.	.	.	4.b-/	8ff\L
.	.	.	.	.	.	.	.	.	.	.	.	.	.	.	.	.	.	.	.	.	.	.	.	.	.	.	.	.	.	.	.	.	16gg\L
.	.	.	.	.	.	.	.	.	.	.	.	.	.	.	.	.	.	.	.	.	.	.	.	.	.	.	.	.	.	.	.	.	16aa\JJ
4E\	.	.	.	.	.	.	.	.	.	.	.	.	.	.	.	.	.	.	.	.	.	.	.	.	.	.	.	4E\	.	.	.	.	8gg\L
.	.	.	.	.	.	.	.	.	.	.	.	.	.	.	.	.	.	.	.	.	.	.	.	.	.	.	.	.	.	.	.	8g/	16aa\L
.	.	.	.	.	.	.	.	.	.	.	.	.	.	.	.	.	.	.	.	.	.	.	.	.	.	.	.	.	.	.	.	.	16bb-\JJ
=24	=24	=24	=24	=24	=24	=24	=24	=24	=24	=24	=24	=24	=24	=24	=24	=24	=24	=24	=24	=24	=24	=24	=24	=24	=24	=24	=24	=24	=24	=24	=24	=24	=24
2F\	.	0r	.	0r	.	0r	.	0r	.	0r	.	0r	.	0r	.	0r	.	0r	.	0r	.	0r	.	0r	.	0r	.	2F\	1F	4r	1f	4cc\	4.aa\
.	.	.	.	.	.	.	.	.	.	.	.	.	.	.	.	.	.	.	.	.	.	.	.	.	.	.	.	.	.	4A/	.	4cc\	.
.	.	.	.	.	.	.	.	.	.	.	.	.	.	.	.	.	.	.	.	.	.	.	.	.	.	.	.	.	.	.	.	.	8gg\
2D\	.	.	.	.	.	.	.	.	.	.	.	.	.	.	.	.	.	.	.	.	.	.	.	.	.	.	.	2D\	.	2d\	.	4dd\	4.ff\
.	.	.	.	.	.	.	.	.	.	.	.	.	.	.	.	.	.	.	.	.	.	.	.	.	.	.	.	.	.	.	.	4.b-\	.
.	.	.	.	.	.	.	.	.	.	.	.	.	.	.	.	.	.	.	.	.	.	.	.	.	.	.	.	.	.	.	.	.	8ee\
2E-X\	.	.	.	.	.	.	.	.	.	.	.	.	.	.	.	.	.	.	.	.	.	.	.	.	.	.	.	2E-X\	4r	4G/	4.e-X\	.	8gg\L
.	.	.	.	.	.	.	.	.	.	.	.	.	.	.	.	.	.	.	.	.	.	.	.	.	.	.	.	.	.	.	.	8b-\	8aa\J
.	.	.	.	.	.	.	.	.	.	.	.	.	.	.	.	.	.	.	.	.	.	.	.	.	.	.	.	.	4B-\	4G/	.	4ee-X\	2bb-\
.	.	.	.	.	.	.	.	.	.	.	.	.	.	.	.	.	.	.	.	.	.	.	.	.	.	.	.	.	.	.	8f\	.	.
2F\	.	.	.	.	.	.	.	.	.	.	.	.	.	.	.	.	.	.	.	.	.	.	.	.	.	.	.	2F\	2F\	2c\	2f\	2cc\	.
.	.	.	.	.	.	.	.	.	.	.	.	.	.	.	.	.	.	.	.	.	.	.	.	.	.	.	.	.	.	.	.	.	4aa\
!!LO:PB:g=original
=25	=25	=25	=25	=25	=25	=25	=25	=25	=25	=25	=25	=25	=25	=25	=25	=25	=25	=25	=25	=25	=25	=25	=25	=25	=25	=25	=25	=25	=25	=25	=25	=25	=25
2BB-/	.	0r	.	0r	.	0r	.	0r	.	0r	.	0r	.	0r	.	0r	.	0r	.	4d\	Chri-	0r	.	0r	.	0r	.	2BB-/	4F/	4.B-/	2f\	2dd\	2bb-\
.	.	.	.	.	.	.	.	.	.	.	.	.	.	.	.	.	.	.	.	8d\	-ste	.	.	.	.	.	.	.	2B-\	.	.	.	.
.	.	.	.	.	.	.	.	.	.	.	.	.	.	.	.	.	.	.	.	8f\	e-	.	.	.	.	.	.	.	.	8d\	.	.	.
4E-X\	.	.	.	.	.	.	.	.	.	.	.	.	.	.	.	.	.	.	.	8e-X\L	-lei-	.	.	.	.	.	.	4E-X\	.	2c\	4g\	2r	2r
.	.	.	.	.	.	.	.	.	.	.	.	.	.	.	.	.	.	.	.	8d\	.	.	.	.	.	.	.	.	.	.	.	.	.
4F\	.	.	.	.	.	.	.	.	.	.	.	.	.	.	.	.	.	.	.	8c\	.	.	.	.	.	.	.	4F\	4A\	.	4f\	.	.
.	.	.	.	.	.	.	.	.	.	.	.	.	.	.	.	.	.	.	.	16f\L	.	.	.	.	.	.	.	.	.	.	.	.	.
.	.	.	.	.	.	.	.	.	.	.	.	.	.	.	.	.	.	.	.	16e-\JJ	.	.	.	.	.	.	.	.	.	.	.	.	.
2BB-/	.	.	.	.	.	.	.	.	.	.	.	.	.	.	.	.	.	.	.	8d\L	.	.	.	.	.	.	.	2BB-/	2.B-\	4B-/	2f\	1r	1r
.	.	.	.	.	.	.	.	.	.	.	.	.	.	.	.	.	.	.	.	8c\	.	.	.	.	.	.	.	.	.	.	.	.	.
.	.	.	.	.	.	.	.	.	.	.	.	.	.	.	.	.	.	.	.	8B-\	.	.	.	.	.	.	.	.	.	4f\	.	.	.
.	.	.	.	.	.	.	.	.	.	.	.	.	.	.	.	.	.	.	.	8A\J	.	.	.	.	.	.	.	.	.	.	.	.	.
4E-X\	.	.	.	.	.	.	.	.	.	.	.	.	.	.	.	.	.	.	.	16G\LL	.	.	.	.	.	.	.	4E-X\	.	4.e-X\	4g\	.	.
.	.	.	.	.	.	.	.	.	.	.	.	.	.	.	.	.	.	.	.	16A\J	.	.	.	.	.	.	.	.	.	.	.	.	.
.	.	.	.	.	.	.	.	.	.	.	.	.	.	.	.	.	.	.	.	8B-\J	.	.	.	.	.	.	.	.	.	.	.	.	.
4C/	.	.	.	.	.	.	.	.	.	.	.	.	.	.	.	.	.	.	.	8c\L	.	.	.	.	.	.	.	4C\	4e-X\	.	4g\	.	.
.	.	.	.	.	.	.	.	.	.	.	.	.	.	.	.	.	.	.	.	8B-\J	.	.	.	.	.	.	.	.	.	8c\	.	.	.
=26	=26	=26	=26	=26	=26	=26	=26	=26	=26	=26	=26	=26	=26	=26	=26	=26	=26	=26	=26	=26	=26	=26	=26	=26	=26	=26	=26	=26	=26	=26	=26	=26	=26
4D\	.	0r	.	0r	.	0r	.	0r	.	0r	.	0r	.	0r	.	0r	.	0r	.	4A\	.	1r	.	0r	.	0r	.	4D\	2d\	4A/	4f#X\	0r	0r
4BB-/	.	.	.	.	.	.	.	.	.	.	.	.	.	.	.	.	.	.	.	16B-\LL	.	.	.	.	.	.	.	4BB-/	.	4d\	2g\	.	.
.	.	.	.	.	.	.	.	.	.	.	.	.	.	.	.	.	.	.	.	16A\	.	.	.	.	.	.	.	.	.	.	.	.	.
.	.	.	.	.	.	.	.	.	.	.	.	.	.	.	.	.	.	.	.	16B-\	.	.	.	.	.	.	.	.	.	.	.	.	.
.	.	.	.	.	.	.	.	.	.	.	.	.	.	.	.	.	.	.	.	16c\JJ	.	.	.	.	.	.	.	.	.	.	.	.	.
4C/	.	.	.	.	.	.	.	.	.	.	.	.	.	.	.	.	.	.	.	4.A\	.	.	.	.	.	.	.	4C/	4e-X\	4c\	.	.	.
4D\	.	.	.	.	.	.	.	.	.	.	.	.	.	.	.	.	.	.	.	.	.	.	.	.	.	.	.	4D\	4d\	4A/	4f#\	.	.
.	.	.	.	.	.	.	.	.	.	.	.	.	.	.	.	.	.	.	.	8A\	.	.	.	.	.	.	.	.	.	.	.	.	.
2GG/	.	.	.	.	.	.	.	.	.	.	.	.	.	.	.	.	.	.	.	2G\	-son	4d\	Chri-	.	.	.	.	2GG/	4d\	2B-\	4g\	.	.
.	.	.	.	.	.	.	.	.	.	.	.	.	.	.	.	.	.	.	.	.	.	8d\	-ste	.	.	.	.	.	4D/	.	4b-\	.	.
.	.	.	.	.	.	.	.	.	.	.	.	.	.	.	.	.	.	.	.	.	.	8g\	e-	.	.	.	.	.	.	.	.	.	.
4AA/	.	.	.	.	.	.	.	.	.	.	.	.	.	.	.	.	.	.	.	2r	.	8f\L	-lei-	.	.	.	.	4AA/	4A\	4c\	4a\	.	.
.	.	.	.	.	.	.	.	.	.	.	.	.	.	.	.	.	.	.	.	.	.	8e\	.	.	.	.	.	.	.	.	.	.	.
4BBn/	.	.	.	.	.	.	.	.	.	.	.	.	.	.	.	.	.	.	.	.	.	8d\	.	.	.	.	.	4BBn/	[4G\	4d\	8r	.	.
.	.	.	.	.	.	.	.	.	.	.	.	.	.	.	.	.	.	.	.	.	.	16g\L	.	.	.	.	.	.	.	.	8d\	.	.
.	.	.	.	.	.	.	.	.	.	.	.	.	.	.	.	.	.	.	.	.	.	16f\JJ	.	.	.	.	.	.	.	.	.	.	.
=27	=27	=27	=27	=27	=27	=27	=27	=27	=27	=27	=27	=27	=27	=27	=27	=27	=27	=27	=27	=27	=27	=27	=27	=27	=27	=27	=27	=27	=27	=27	=27	=27	=27
4C\	.	0r	.	0r	.	0r	.	0r	.	0r	.	0r	.	0r	.	0r	.	0r	.	1r	.	8e-X\L	.	0r	.	0r	.	4C/	4G\]	4G/	4c\	0r	0r
.	.	.	.	.	.	.	.	.	.	.	.	.	.	.	.	.	.	.	.	.	.	8d\	.	.	.	.	.	.	.	.	.	.	.
4F\	.	.	.	.	.	.	.	.	.	.	.	.	.	.	.	.	.	.	.	.	.	8c\	.	.	.	.	.	4F\	4F/	4A/	4c\	.	.
.	.	.	.	.	.	.	.	.	.	.	.	.	.	.	.	.	.	.	.	.	.	16f\L	.	.	.	.	.	.	.	.	.	.	.
.	.	.	.	.	.	.	.	.	.	.	.	.	.	.	.	.	.	.	.	.	.	16e-\JJ	.	.	.	.	.	.	.	.	.	.	.
2BB-/	.	.	.	.	.	.	.	.	.	.	.	.	.	.	.	.	.	.	.	.	.	8d\L	.	.	.	.	.	2BB-X/	2F/	2B-/	2d\	.	.
.	.	.	.	.	.	.	.	.	.	.	.	.	.	.	.	.	.	.	.	.	.	8c\	.	.	.	.	.	.	.	.	.	.	.
.	.	.	.	.	.	.	.	.	.	.	.	.	.	.	.	.	.	.	.	.	.	8B-\	.	.	.	.	.	.	.	.	.	.	.
.	.	.	.	.	.	.	.	.	.	.	.	.	.	.	.	.	.	.	.	.	.	8A\J	.	.	.	.	.	.	.	.	.	.	.
4E-X\	.	.	.	.	.	.	.	.	.	.	.	.	.	.	.	.	.	.	.	2r	.	8G/L	.	.	.	.	.	4E-X\	4G/	4.B-/	4e-X\	.	.
.	.	.	.	.	.	.	.	.	.	.	.	.	.	.	.	.	.	.	.	.	.	8A/J	.	.	.	.	.	.	.	.	.	.	.
*	*above	*	*	*	*	*	*	*	*	*	*	*	*	*	*	*	*	*	*	*	*	*	*	*	*	*	*	*	*	*	*	*	*
!	!	!	!	!	!	!	!	!	!	!	!	!	!	!	!	!	!	!	!	!	!	!	!	!	!	!	!	!	!LO:TX:t=P:problem=mixed beam	!	!	!	!
4D\	6	.	.	.	.	.	.	.	.	.	.	.	.	.	.	.	.	.	.	.	.	2B-/	.	.	.	.	.	4D\	8F/L	.	4f\	.	.
.	.	.	.	.	.	.	.	.	.	.	.	.	.	.	.	.	.	.	.	.	.	.	.	.	.	.	.	.	8f\J	8d/	.	.	.
4E-\	6 5	.	.	.	.	.	.	.	.	.	.	.	.	.	.	.	.	.	.	4c\	Chri-	.	.	.	.	.	.	4E-\	4e-X\	4c\	4g\	.	.
4F\	.	.	.	.	.	.	.	.	.	.	.	.	.	.	.	.	.	.	.	8c\	-ste	4A/	.	.	.	.	.	4F\	4c\	4c\	4f\	.	.
.	.	.	.	.	.	.	.	.	.	.	.	.	.	.	.	.	.	.	.	8f\	e-	.	.	.	.	.	.	.	.	.	.	.	.
!!LO:PB:g=original
=28	=28	=28	=28	=28	=28	=28	=28	=28	=28	=28	=28	=28	=28	=28	=28	=28	=28	=28	=28	=28	=28	=28	=28	=28	=28	=28	=28	=28	=28	=28	=28	=28	=28
4BB-X/	.	0r	.	0r	.	0r	.	0r	.	0r	.	0r	.	0r	.	0r	.	0r	.	8d\L	-lei-	4B-/	-son	0r	.	0r	.	4BB-/	4d\	4d\	4f\	0r	0r
.	.	.	.	.	.	.	.	.	.	.	.	.	.	.	.	.	.	.	.	8c\	.	.	.	.	.	.	.	.	.	.	.	.	.
4E-X\	.	.	.	.	.	.	.	.	.	.	.	.	.	.	.	.	.	.	.	8B-\	.	4r	.	.	.	.	.	4E-X\	4B-\	4G/	4g\	.	.
.	.	.	.	.	.	.	.	.	.	.	.	.	.	.	.	.	.	.	.	16e-X\L	.	.	.	.	.	.	.	.	.	.	.	.	.
.	.	.	.	.	.	.	.	.	.	.	.	.	.	.	.	.	.	.	.	16d\JJ	.	.	.	.	.	.	.	.	.	.	.	.	.
4F\	.	.	.	.	.	.	.	.	.	.	.	.	.	.	.	.	.	.	.	8c\L	.	2r	.	.	.	.	.	4F\	4A\	4A/	4f\	.	.
.	.	.	.	.	.	.	.	.	.	.	.	.	.	.	.	.	.	.	.	8d\	.	.	.	.	.	.	.	.	.	.	.	.	.
4E-\	.	.	.	.	.	.	.	.	.	.	.	.	.	.	.	.	.	.	.	8e-X\	.	.	.	.	.	.	.	4E-\	4G\	4B-/	2g\	.	.
.	.	.	.	.	.	.	.	.	.	.	.	.	.	.	.	.	.	.	.	16f\L	.	.	.	.	.	.	.	.	.	.	.	.	.
.	.	.	.	.	.	.	.	.	.	.	.	.	.	.	.	.	.	.	.	16g\JJ	.	.	.	.	.	.	.	.	.	.	.	.	.
4G\	.	.	.	.	.	.	.	.	.	.	.	.	.	.	.	.	.	.	.	16d\LL	.	1r	.	.	.	.	.	4G\	4.G/	4B-/	.	.	.
.	.	.	.	.	.	.	.	.	.	.	.	.	.	.	.	.	.	.	.	16c\	.	.	.	.	.	.	.	.	.	.	.	.	.
.	.	.	.	.	.	.	.	.	.	.	.	.	.	.	.	.	.	.	.	16d\	.	.	.	.	.	.	.	.	.	.	.	.	.
.	.	.	.	.	.	.	.	.	.	.	.	.	.	.	.	.	.	.	.	16e-\JJ	.	.	.	.	.	.	.	.	.	.	.	.	.
4E-X\	6	.	.	.	.	.	.	.	.	.	.	.	.	.	.	.	.	.	.	2c\	.	.	.	.	.	.	.	4E-X\	.	4e-X\	4g\	.	.
.	.	.	.	.	.	.	.	.	.	.	.	.	.	.	.	.	.	.	.	.	.	.	.	.	.	.	.	.	8g\	.	.	.	.
4F\	6 5	.	.	.	.	.	.	.	.	.	.	.	.	.	.	.	.	.	.	.	.	.	.	.	.	.	.	4F\	4f\	4.d\	4a\	.	.
4G\	n	.	.	.	.	.	.	.	.	.	.	.	.	.	.	.	.	.	.	4Bn\	.	.	.	.	.	.	.	4G\	4d\	.	4g\	.	.
.	.	.	.	.	.	.	.	.	.	.	.	.	.	.	.	.	.	.	.	.	.	.	.	.	.	.	.	.	.	8d\	.	.	.
=29	=29	=29	=29	=29	=29	=29	=29	=29	=29	=29	=29	=29	=29	=29	=29	=29	=29	=29	=29	=29	=29	=29	=29	=29	=29	=29	=29	=29	=29	=29	=29	=29	=29
2.c\	-	0r	.	0r	.	0r	.	0r	.	0r	.	0r	.	0r	.	0r	.	0ryy	.	2c\	-son	4e-X\	Chri-	0r	.	0r	.	2C/	4e-X\	2c\	2g\	0r	0r
.	.	.	.	.	.	.	.	.	.	.	.	.	.	.	.	.	.	.	.	.	.	8e-\	-ste	.	.	.	.	.	4d\	.	.	.	.
.	.	.	.	.	.	.	.	.	.	.	.	.	.	.	.	.	.	.	.	.	.	8e-\	e-	.	.	.	.	.	.	.	.	.	.
.	.	.	.	.	.	.	.	.	.	.	.	.	.	.	.	.	.	.	.	2r	.	8.d\L	-lei-	.	.	.	.	2r	2r	2r	2r	.	.
.	.	.	.	.	.	.	.	.	.	.	.	.	.	.	.	.	.	.	.	.	.	16e-X\K	.	.	.	.	.	.	.	.	.	.	.
4Bn\	6	.	.	.	.	.	.	.	.	.	.	.	.	.	.	.	.	.	.	.	.	8f\	.	.	.	.	.	.	.	.	.	.	.
.	.	.	.	.	.	.	.	.	.	.	.	.	.	.	.	.	.	.	.	.	.	8g\J	.	.	.	.	.	.	.	.	.	.	.
4c\	-	.	.	.	.	.	.	.	.	.	.	.	.	.	.	.	.	.	.	1r	.	8.e-X\L	.	.	.	.	.	1r	1r	1r	1r	.	.
.	.	.	.	.	.	.	.	.	.	.	.	.	.	.	.	.	.	.	.	.	.	16f\K	.	.	.	.	.	.	.	.	.	.	.
4B-X\	.	.	.	.	.	.	.	.	.	.	.	.	.	.	.	.	.	.	.	.	.	8.d\	.	.	.	.	.	.	.	.	.	.	.
.	.	.	.	.	.	.	.	.	.	.	.	.	.	.	.	.	.	.	.	.	.	16e-\Jk	.	.	.	.	.	.	.	.	.	.	.
4A-X\	.	.	.	.	.	.	.	.	.	.	.	.	.	.	.	.	.	.	.	.	.	8c\L	.	.	.	.	.	.	.	.	.	.	.
.	.	.	.	.	.	.	.	.	.	.	.	.	.	.	.	.	.	.	.	.	.	16d\L	.	.	.	.	.	.	.	.	.	.	.
.	.	.	.	.	.	.	.	.	.	.	.	.	.	.	.	.	.	.	.	.	.	16e-X\JJ	.	.	.	.	.	.	.	.	.	.	.
4G\	.	.	.	.	.	.	.	.	.	.	.	.	.	.	.	.	.	.	.	.	.	8f\L	.	.	.	.	.	.	.	.	.	.	.
.	.	.	.	.	.	.	.	.	.	.	.	.	.	.	.	.	.	.	.	.	.	8e-\J	.	.	.	.	.	.	.	.	.	.	.
=30	=30	=30	=30	=30	=30	=30	=30	=30	=30	=30	=30	=30	=30	=30	=30	=30	=30	=30	=30	=30	=30	=30	=30	=30	=30	=30	=30	=30	=30	=30	=30	=30	=30
*	*below	*	*	*	*	*	*	*	*	*	*	*	*	*	*	*	*	*	*	*	*	*	*	*	*	*	*	*	*	*	*	*	*
4G\	n	0r	.	0r	.	0r	.	0r	.	0r	.	0r	.	0r	.	0r	.	0r	.	0r	.	4d/	-son,	0r	.	0r	.	0r	0r	0r	0r	0r	0r
4E-X\	.	.	.	.	.	.	.	.	.	.	.	.	.	.	.	.	.	.	.	.	.	8r	.	.	.	.	.	.	.	.	.	.	.
.	.	.	.	.	.	.	.	.	.	.	.	.	.	.	.	.	.	.	.	.	.	8G/	e-	.	.	.	.	.	.	.	.	.	.
4F\	.	.	.	.	.	.	.	.	.	.	.	.	.	.	.	.	.	.	.	.	.	16A/LL	-lei-	.	.	.	.	.	.	.	.	.	.
.	.	.	.	.	.	.	.	.	.	.	.	.	.	.	.	.	.	.	.	.	.	16B-/	.	.	.	.	.	.	.	.	.	.	.
.	.	.	.	.	.	.	.	.	.	.	.	.	.	.	.	.	.	.	.	.	.	16c/	.	.	.	.	.	.	.	.	.	.	.
.	.	.	.	.	.	.	.	.	.	.	.	.	.	.	.	.	.	.	.	.	.	16d/JJ	.	.	.	.	.	.	.	.	.	.	.
4G\	.	.	.	.	.	.	.	.	.	.	.	.	.	.	.	.	.	.	.	.	.	16B/LL	.	.	.	.	.	.	.	.	.	.	.
.	.	.	.	.	.	.	.	.	.	.	.	.	.	.	.	.	.	.	.	.	.	16c/	.	.	.	.	.	.	.	.	.	.	.
.	.	.	.	.	.	.	.	.	.	.	.	.	.	.	.	.	.	.	.	.	.	16d/	.	.	.	.	.	.	.	.	.	.	.
.	.	.	.	.	.	.	.	.	.	.	.	.	.	.	.	.	.	.	.	.	.	16e/JJ	.	.	.	.	.	.	.	.	.	.	.
4A-X\	.	.	.	.	.	.	.	.	.	.	.	.	.	.	.	.	.	.	.	.	.	8c\L	.	.	.	.	.	.	.	.	.	.	.
.	.	.	.	.	.	.	.	.	.	.	.	.	.	.	.	.	.	.	.	.	.	16d\L	.	.	.	.	.	.	.	.	.	.	.
.	.	.	.	.	.	.	.	.	.	.	.	.	.	.	.	.	.	.	.	.	.	16e-X\JJ	.	.	.	.	.	.	.	.	.	.	.
*	*above	*	*	*	*	*	*	*	*	*	*	*	*	*	*	*	*	*	*	*	*	*	*	*	*	*	*	*	*	*	*	*	*
4F\	-	.	.	.	.	.	.	.	.	.	.	.	.	.	.	.	.	.	.	.	.	8f\L	.	.	.	.	.	.	.	.	.	.	.
.	.	.	.	.	.	.	.	.	.	.	.	.	.	.	.	.	.	.	.	.	.	8e-\J	.	.	.	.	.	.	.	.	.	.	.
!!LO:PB:g=original
=-	=-	=-	=-	=-	=-	=-	=-	=-	=-	=-	=-	=-	=-	=-	=-	=-	=-	=-	=-	=-	=-	=-	=-	=-	=-	=-	=-	=-	=-	=-	=-	=-	=-
*	*below	*	*	*	*	*	*	*	*	*	*	*	*	*	*	*	*	*	*	*	*	*	*	*	*	*	*	*	*	*	*	*	*
2G\	4	.	.	.	.	.	.	.	.	.	.	.	.	.	.	.	.	.	.	.	.	16d\LL	.	.	.	.	.	.	.	.	.	.	.
.	.	.	.	.	.	.	.	.	.	.	.	.	.	.	.	.	.	.	.	.	.	16c\	.	.	.	.	.	.	.	.	.	.	.
.	.	.	.	.	.	.	.	.	.	.	.	.	.	.	.	.	.	.	.	.	.	16d\	.	.	.	.	.	.	.	.	.	.	.
.	.	.	.	.	.	.	.	.	.	.	.	.	.	.	.	.	.	.	.	.	.	16e-X\JJ	.	.	.	.	.	.	.	.	.	.	.
.	n	.	.	.	.	.	.	.	.	.	.	.	.	.	.	.	.	.	.	.	.	4d\	.	.	.	.	.	.	.	.	.	.	.
=31	=31	=31	=31	=31	=31	=31	=31	=31	=31	=31	=31	=31	=31	=31	=31	=31	=31	=31	=31	=31	=31	=31	=31	=31	=31	=31	=31	=31	=31	=31	=31	=31	=31
2C\	.	0r	.	0r	.	0r	.	0r	.	0r	.	0r	.	0r	.	0r	.	0r	.	4c\	Chri-	4c\	-son.	0r	.	0r	.	2C/	1G	2e-\	2.g\	0r	0r
.	.	.	.	.	.	.	.	.	.	.	.	.	.	.	.	.	.	.	.	8c\	-ste	4r	.	.	.	.	.	.	.	.	.	.	.
.	.	.	.	.	.	.	.	.	.	.	.	.	.	.	.	.	.	.	.	8c\	e-	.	.	.	.	.	.	.	.	.	.	.	.
2GG/	.	.	.	.	.	.	.	.	.	.	.	.	.	.	.	.	.	.	.	8B-\L	-lei-	2r	.	.	.	.	.	2GG/	.	2d\	.	.	.
.	.	.	.	.	.	.	.	.	.	.	.	.	.	.	.	.	.	.	.	8A\J	.	.	.	.	.	.	.	.	.	.	.	.	.
.	.	.	.	.	.	.	.	.	.	.	.	.	.	.	.	.	.	.	.	8G\L	.	.	.	.	.	.	.	.	.	.	4g\	.	.
.	.	.	.	.	.	.	.	.	.	.	.	.	.	.	.	.	.	.	.	16A\L	.	.	.	.	.	.	.	.	.	.	.	.	.
.	.	.	.	.	.	.	.	.	.	.	.	.	.	.	.	.	.	.	.	16B-\JJ	.	.	.	.	.	.	.	.	.	.	.	.	.
2FF#X/	6 5	.	.	.	.	.	.	.	.	.	.	.	.	.	.	.	.	.	.	8A\L	.	2r	.	.	.	.	.	2FF#/	2A\	4r	4e\	.	.
.	.	.	.	.	.	.	.	.	.	.	.	.	.	.	.	.	.	.	.	8B-\	.	.	.	.	.	.	.	.	.	.	.	.	.
.	.	.	.	.	.	.	.	.	.	.	.	.	.	.	.	.	.	.	.	8c\	.	.	.	.	.	.	.	.	.	4A/	4a\	.	.
.	.	.	.	.	.	.	.	.	.	.	.	.	.	.	.	.	.	.	.	8d\J	.	.	.	.	.	.	.	.	.	.	.	.	.
2GG/	.	.	.	.	.	.	.	.	.	.	.	.	.	.	.	.	.	.	.	4.B-\	-son,	4g\	Chri-	.	.	.	.	2GG/	2E/	2B-/	2g\	.	.
.	.	.	.	.	.	.	.	.	.	.	.	.	.	.	.	.	.	.	.	.	.	8g\	-ste	.	.	.	.	.	.	.	.	.	.
.	.	.	.	.	.	.	.	.	.	.	.	.	.	.	.	.	.	.	.	8B-\	e-	8g\	e-	.	.	.	.	.	.	.	.	.	.
=32	=32	=32	=32	=32	=32	=32	=32	=32	=32	=32	=32	=32	=32	=32	=32	=32	=32	=32	=32	=32	=32	=32	=32	=32	=32	=32	=32	=32	=32	=32	=32	=32	=32
*M3/1	*	*M3/1	*	*M3/1	*	*M3/1	*	*M3/1	*	*M3/1	*	*M3/1	*	*M3/1	*	*M3/1	*	*M3/1	*	*M3/1	*	*M3/1	*	*M3/1	*	*M3/1	*	*M3/1	*M3/1	*M3/1	*M3/1	*M3/1	*M3/1
*met(3)	*	*met(3)	*	*met(3)	*	*met(3)	*	*met(3)	*	*met(3)	*	*met(3)	*	*met(3)	*	*met(3)	*	*met(3)	*	*met(3)	*	*met(3)	*	*met(3)	*	*met(3)	*	*met(3)	*met(3)	*met(3)	*met(3)	*met(3)	*met(3)
*	*^	*	*	*	*	*	*	*	*	*	*	*	*	*	*	*	*	*	*	*	*	*	*	*	*	*	*	*	*	*	*	*	*
4AA/	.	.	0.r	.	0.r	.	0.r	.	0.r	.	0.r	.	0.r	.	0.r	.	0.r	.	0.r	.	4c\	-lei-	8f\L	-lei-	0.r	.	0.r	.	4AA/	4A\	4d\	2f\	0.r	0.r
.	.	.	.	.	.	.	.	.	.	.	.	.	.	.	.	.	.	.	.	.	.	.	16e\L	.	.	.	.	.	.	.	.	.	.	.
.	.	.	.	.	.	.	.	.	.	.	.	.	.	.	.	.	.	.	.	.	.	.	16d\J	.	.	.	.	.	.	.	.	.	.	.
4BB-/	.	.	.	.	.	.	.	.	.	.	.	.	.	.	.	.	.	.	.	.	2d\	.	8e\	.	.	.	.	.	4BB-/	4D/	4e\	.	.	.
.	.	.	.	.	.	.	.	.	.	.	.	.	.	.	.	.	.	.	.	.	.	.	8f\J	.	.	.	.	.	.	.	.	.	.	.
*	*above	*	*	*	*	*	*	*	*	*	*	*	*	*	*	*	*	*	*	*	*	*	*	*	*	*	*	*	*	*	*	*	*	*
2C\	9	-	.	.	.	.	.	.	.	.	.	.	.	.	.	.	.	.	.	.	.	.	8e\L	.	.	.	.	.	2C/	2E-/	2G/	4e-\	.	.
.	.	.	.	.	.	.	.	.	.	.	.	.	.	.	.	.	.	.	.	.	.	.	8f\J	.	.	.	.	.	.	.	.	.	.	.
.	8	.	.	.	.	.	.	.	.	.	.	.	.	.	.	.	.	.	.	.	2c\	.	4e\	.	.	.	.	.	.	.	.	2g\	.	.
2GG/	4	.	.	.	.	.	.	.	.	.	.	.	.	.	.	.	.	.	.	.	.	.	4d\	-son	.	.	.	.	2GG/	4G/	2.G/	.	.	.
.	3	.	.	.	.	.	.	.	.	.	.	.	.	.	.	.	.	.	.	.	2B-\	.	2G/	Chri-	.	.	.	.	.	2B-\	.	4d\	.	.
2D\	4	.	.	.	.	.	.	.	.	.	.	.	.	.	.	.	.	.	.	.	.	.	.	.	.	.	.	.	2D\	.	.	2d\	.	.
.	3	.	.	.	.	.	.	.	.	.	.	.	.	.	.	.	.	.	.	.	2A\	.	4F/	-ste	.	.	.	.	.	2d\	4A/	.	.	.
4.BB-/	.	.	.	.	.	.	.	.	.	.	.	.	.	.	.	.	.	.	.	.	.	.	2B-/	e-	.	.	.	.	4.BB-/	.	4.B-/	1d	.	.
.	.	.	.	.	.	.	.	.	.	.	.	.	.	.	.	.	.	.	.	.	2G\	.	.	.	.	.	.	.	.	4B-\	.	.	.	.
8C/	.	.	.	.	.	.	.	.	.	.	.	.	.	.	.	.	.	.	.	.	.	.	.	.	.	.	.	.	8C/	.	8c/	.	.	.
2D\	4	.	.	.	.	.	.	.	.	.	.	.	.	.	.	.	.	.	.	.	.	.	2A/	-lei-	.	.	.	.	2D\	2A\	4d/	.	.	.
.	#	.	.	.	.	.	.	.	.	.	.	.	.	.	.	.	.	.	.	.	4F#X/	.	.	.	.	.	.	.	.	.	4A/	.	.	.
*	*v	*v	*	*	*	*	*	*	*	*	*	*	*	*	*	*	*	*	*	*	*	*	*	*	*	*	*	*	*	*	*	*	*	*
=33	=33	=33	=33	=33	=33	=33	=33	=33	=33	=33	=33	=33	=33	=33	=33	=33	=33	=33	=33	=33	=33	=33	=33	=33	=33	=33	=33	=33	=33	=33	=33	=33	=33
!	!	!	!	!	!	!	!	!	!	!	!	!	!	!	!	!	!	!	!	!	!	!	!	!	!	!	!	!	!	!LO:SIC:v:s=0.B	!	!	!
0.GGl	.	0.r	.	0.r	.	0.r	.	0.r	.	0.r	.	0.r	.	0.r	.	0.r	.	0.r	.	0.Gl	-son.	0.Bnl	-son	0.r	.	0.r	.	0.GGl	0.Gl	0.B-l	0.dl	0.r	0.r
!!LO:PB:g=original
=34||	=34||	=34||	=34||	=34||	=34||	=34||	=34||	=34||	=34||	=34||	=34||	=34||	=34||	=34||	=34||	=34||	=34||	=34||	=34||	=34||	=34||	=34||	=34||	=34||	=34||	=34||	=34||	=34||	=34||	=34||	=34||	=34||	=34||
*M2/1	*	*M2/1	*	*M2/1	*	*M2/1	*	*M2/1	*	*M2/1	*	*M2/1	*	*M2/1	*	*M2/1	*	*M2/1	*	*M2/1	*	*M2/1	*	*M2/1	*	*M2/1	*	*M2/1	*M2/1	*M2/1	*M2/1	*M2/1	*M2/1
*met(C)	*	*met(C)	*	*met(C)	*	*met(C)	*	*met(C)	*	*met(C)	*	*met(C)	*	*met(C)	*	*met(C)	*	*met(C)	*	*met(C)	*	*met(C)	*	*met(C)	*	*met(C)	*	*met(C)	*met(C)	*met(C)	*met(C)	*met(C)	*met(C)
*^	*	*	*	*	*	*	*	*	*	*	*	*	*	*	*	*	*	*	*	*	*	*	*	*	*	*	*	*	*	*	*	*	*
*	*	*below	*	*	*	*	*	*	*	*	*	*	*	*	*	*	*	*	*	*	*	*	*	*	*	*	*	*	*	*	*	*	*	*
!LO:TX:b:i:t=Tertii Toni:note=podkreślone	!	!	!	!	!	!	!	!	!	!	!	!	!	!	!	!	!	!	!	!	!	!	!	!	!	!	!	!	!	!	!	!	!	!LO:SIC:v:s=2bb
1G	0rF	n	0r	.	0r	.	0r	.	0r	.	0r	.	0r	.	0r	.	0r	.	0r	.	0r	.	0r	.	0r	.	0r	.	2G\	4G/	4Bn/	4d\	2gg\	2bb-\
.	.	.	.	.	.	.	.	.	.	.	.	.	.	.	.	.	.	.	.	.	.	.	.	.	.	.	.	.	.	4G/	4d\	4g\	.	.
!	!	!	!	!	!	!	!	!	!	!	!	!	!	!	!	!	!	!	!	!	!	!	!	!	!	!	!	!	!	!	!	!	!	!LO:SIC:v:s=4bb
.	.	.	.	.	.	.	.	.	.	.	.	.	.	.	.	.	.	.	.	.	.	.	.	.	.	.	.	.	4G\	4Bn\	4d\	4g\	4gg\	4bb-\
!	!	!	!	!	!	!	!	!	!	!	!	!	!	!	!	!	!	!	!	!	!	!	!	!	!	!	!	!	!	!	!	!	!	!LO:SIC:v:s=4bb
.	.	.	.	.	.	.	.	.	.	.	.	.	.	.	.	.	.	.	.	.	.	.	.	.	.	.	.	.	4G\	4B\	4d\	4g\	4gg\	4bb-\
2C/	.	.	.	.	.	.	.	.	.	.	.	.	.	.	.	.	.	.	.	.	.	.	.	.	.	.	.	.	2C/	2c\	2e\	2.g\	4gg\	4gg\
.	.	.	.	.	.	.	.	.	.	.	.	.	.	.	.	.	.	.	.	.	.	.	.	.	.	.	.	.	.	.	.	.	4ee\	2gg\
2BBn/	.	.	.	.	.	.	.	.	.	.	.	.	.	.	.	.	.	.	.	.	.	.	.	.	.	.	.	.	2BBn/	2B\	2d\	.	[2dd\	.
.	.	.	.	.	.	.	.	.	.	.	.	.	.	.	.	.	.	.	.	.	.	.	.	.	.	.	.	.	.	.	.	4f\	.	4ff\
*v	*v	*	*	*	*	*	*	*	*	*	*	*	*	*	*	*	*	*	*	*	*	*	*	*	*	*	*	*	*	*	*	*	*	*
=35	=35	=35	=35	=35	=35	=35	=35	=35	=35	=35	=35	=35	=35	=35	=35	=35	=35	=35	=35	=35	=35	=35	=35	=35	=35	=35	=35	=35	=35	=35	=35	=35	=35
*M3/1	*	*M3/1	*	*M3/1	*	*M3/1	*	*M3/1	*	*M3/1	*	*M3/1	*	*M3/1	*	*M3/1	*	*M3/1	*	*M3/1	*	*M3/1	*	*M3/1	*	*M3/1	*	*M3/1	*M3/1	*M3/1	*M3/1	*M3/1	*M3/1
*met()	*	*met()	*	*met()	*	*met()	*	*met()	*	*met()	*	*met()	*	*met()	*	*met()	*	*met()	*	*met()	*	*met()	*	*met()	*	*met()	*	*met()	*met()	*met()	*met()	*met()	*met()
*	*above	*	*	*	*	*	*	*	*	*	*	*	*	*	*	*	*	*	*	*	*	*	*	*	*	*	*	*	*	*	*	*	*
!!LO:TX:t=P:problem=brak zmiany metrycznej w źródle
1C	9 5	0.r	.	0.r	.	0.r	.	0.r	.	0.r	.	0.r	.	0.r	.	0.r	.	0.r	.	0.r	.	0.r	.	0.r	.	0r	.	1C	2G\	2g\	1e	2dd\]	2ee\
.	8 6	.	.	.	.	.	.	.	.	.	.	.	.	.	.	.	.	.	.	.	.	.	.	.	.	.	.	.	2c\	2e\	.	1cc	2aa\
*	*below	*	*	*	*	*	*	*	*	*	*	*	*	*	*	*	*	*	*	*	*	*	*	*	*	*	*	*	*	*	*	*	*
0D	#	.	.	.	.	.	.	.	.	.	.	.	.	.	.	.	.	.	.	.	.	.	.	.	.	.	.	0D	2A\	2a\	0d	.	2ff#X\
.	4	.	.	.	.	.	.	.	.	.	.	.	.	.	.	.	.	.	.	.	.	.	.	.	.	.	.	.	2B\	2g\	.	2b-\	1gg
.	.	.	.	.	.	.	.	.	.	.	.	.	.	.	.	.	.	.	.	.	.	.	.	.	.	1r	.	.	2d\	1a	.	2a\	.
.	#	.	.	.	.	.	.	.	.	.	.	.	.	.	.	.	.	.	.	.	.	.	.	.	.	.	.	.	2A\	.	.	[2dd\	2ff#X\
=36	=36	=36	=36	=36	=36	=36	=36	=36	=36	=36	=36	=36	=36	=36	=36	=36	=36	=36	=36	=36	=36	=36	=36	=36	=36	=36	=36	=36	=36	=36	=36	=36	=36
0E	# 7	0r	.	0r	.	0r	.	0r	.	0r	.	0r	.	0r	.	0r	.	0r	.	0r	.	0r	.	0r	.	0r	.	0E	1e	4r	2Bn/	2dd\]	2gg#X\
.	.	.	.	.	.	.	.	.	.	.	.	.	.	.	.	.	.	.	.	.	.	.	.	.	.	.	.	.	.	2f\	.	.	.
.	4 6	.	.	.	.	.	.	.	.	.	.	.	.	.	.	.	.	.	.	.	.	.	.	.	.	.	.	.	.	.	4c\	2cc\	1aa
.	.	.	.	.	.	.	.	.	.	.	.	.	.	.	.	.	.	.	.	.	.	.	.	.	.	.	.	.	.	4e\	4d\	.	.
.	.	.	.	.	.	.	.	.	.	.	.	.	.	.	.	.	.	.	.	.	.	.	.	.	.	.	.	.	1E	2e\	1e	1bn	.
.	# 5	.	.	.	.	.	.	.	.	.	.	.	.	.	.	.	.	.	.	.	.	.	.	.	.	.	.	.	.	2B-/	.	.	2gg#\
1AA	.	2.A\	Ky-	2.c#X\	.	2.e\	.	2.a\	.	2.AA/	Ky-	2.E/	.	2.A/	.	2.ee\	.	2.A\	Ky-	2.c#X\	.	2.e\	.	2.a\	.	2.a\	Ky-	2.AA/	2.E/	2.A/	2.e\	2.cc#X\	2.aa\
.	.	4A\	-ri-	4c#\	.	4e\	.	4a\	.	4AA/	-ri-	4A\	.	4A/	.	4ee\	.	4A\	-ri-	4c#\	.	4e\	.	4a\	.	4a\	-ri-	4AA/	4e\	4A/	4d\	4cc#\	4aa\
=37	=37	=37	=37	=37	=37	=37	=37	=37	=37	=37	=37	=37	=37	=37	=37	=37	=37	=37	=37	=37	=37	=37	=37	=37	=37	=37	=37	=37	=37	=37	=37	=37	=37
*M2/1	*	*M2/1	*	*M2/1	*	*M2/1	*	*M2/1	*	*M2/1	*	*M2/1	*	*M2/1	*	*M2/1	*	*M2/1	*	*M2/1	*	*M2/1	*	*M2/1	*	*M2/1	*	*M2/1	*M2/1	*M2/1	*M2/1	*M2/1	*M2/1
*met()	*	*met()	*	*met()	*	*met()	*	*met()	*	*met()	*	*met()	*	*met()	*	*met()	*	*met()	*	*met()	*	*met()	*	*met()	*	*met()	*	*met()	*met()	*met()	*met()	*met()	*met()
!	!	!	!	!LO:SIC:v:s=0c#	!	!	!	!	!	!	!	!	!	!	!	!	!	!	!	!LO:SIC:v:s=0c#	!	!	!	!	!	!	!	!	!LO:SIC:v:s=0c#	!	!	!	!
0AA	#	0A	-e	0c	.	0e	.	0a	.	0AA	-e	0E	.	0A	.	0ee	.	0A	-e	0c	.	0e	.	0a	.	0a	-e	0AA	0c	0A	0e	0ee	0aa
!!LO:PB:g=original
=38	=38	=38	=38	=38	=38	=38	=38	=38	=38	=38	=38	=38	=38	=38	=38	=38	=38	=38	=38	=38	=38	=38	=38	=38	=38	=38	=38	=38	=38	=38	=38	=38	=38
!	!	!	!	!	!	!	!	!	!	!	!	!	!	!	!	!	!	!	!	!	!	!	!	!	!	!	!	!	!	!	!LO:SIC:v:s=1.ff#	!	!
0F#X	.	0r	.	0r	.	0r	.	0r	.	0r	.	0r	.	0r	.	0r	.	0r	.	0r	.	0r	.	0r	.	0r	.	0F#X	1A	1.A	1.f	2ee\	1.aa
.	.	.	.	.	.	.	.	.	.	.	.	.	.	.	.	.	.	.	.	.	.	.	.	.	.	.	.	.	.	.	.	4dd\	.
.	.	.	.	.	.	.	.	.	.	.	.	.	.	.	.	.	.	.	.	.	.	.	.	.	.	.	.	.	.	.	.	4cc\	.
.	.	.	.	.	.	.	.	.	.	.	.	.	.	.	.	.	.	.	.	.	.	.	.	.	.	.	.	.	2F#X\	.	.	2.dd\	.
!	!	!	!	!	!	!	!	!	!	!	!	!	!	!	!	!	!	!	!	!	!	!	!	!	!	!	!	!	!	!	!	!	!LO:N:vis=1
.	.	.	.	.	.	.	.	.	.	.	.	.	.	.	.	.	.	.	.	.	.	.	.	.	.	.	.	.	2A\	2A/	2d\	.	2aa
.	.	.	.	.	.	.	.	.	.	.	.	.	.	.	.	.	.	.	.	.	.	.	.	.	.	.	.	.	.	.	.	4dd\	.
=39||	=39||	=39||	=39||	=39||	=39||	=39||	=39||	=39||	=39||	=39||	=39||	=39||	=39||	=39||	=39||	=39||	=39||	=39||	=39||	=39||	=39||	=39||	=39||	=39||	=39||	=39||	=39||	=39||	=39||	=39||	=39||	=39||	=39||
*k[]	*	*k[]	*	*k[]	*	*k[]	*	*k[]	*	*k[]	*	*k[]	*	*k[]	*	*k[]	*	*k[]	*	*k[]	*	*k[]	*	*k[]	*	*k[]	*	*k[]	*k[]	*k[]	*k[]	*k[]	*k[]
*M3/1	*	*M3/1	*	*M3/1	*	*M3/1	*	*M3/1	*	*M3/1	*	*M3/1	*	*M3/1	*	*M3/1	*	*M3/1	*	*M3/1	*	*M3/1	*	*M3/1	*	*M3/1	*	*M3/1	*M3/1	*M3/1	*M3/1	*M3/1	*M3/1
*met(3)	*	*met(3)	*	*met(3)	*	*met(3)	*	*met(3)	*	*met(3)	*	*met(3)	*	*met(3)	*	*met(3)	*	*met(3)	*	*met(3)	*	*met(3)	*	*met(3)	*	*met(3)	*	*met(3)	*met(3)	*met(3)	*met(3)	*met(3)	*met(3)
!	!	!LO:TX:a:i:t=col basso del Coro 2do.:note=podkreślone	!	!LO:TX:a:i:t=col tenore del Coro 1.:note=podkreślone	!	!LO:TX:a:i:t=coll alto del Coro 1.:note=podkreślone	!	!LO:TX:a:i:t=col Canto 1 del Coro 1.:note=podkreślone	!	!	!	!	!	!	!	!	!	!	!	!	!	!	!	!LO:TX:a:i:t=col 1mo:note=podkreślone	!	!	!	!	!	!	!	!	!LO:SIC:v:s=1.gg#
0E	#	1.E	.	1.Byy	.	1.eyy	.	1.g#Xyy	.	1.E	.	1.B	Ky-	1.e	.	1.ee	.	1.E	Ky-	1.B	.	1.e	.	1.g#Xyy	Ky-	1.g#X	Ky-	1.E	1r	1.B	1r	1.ee	1.gg
.	.	.	.	.	.	.	.	.	.	.	.	.	.	.	.	.	.	.	.	.	.	.	.	.	.	.	.	.	1.E	.	1B	.	.
!	!	!	!	!	!	!	!	!	!	!	!	!	!	!	!	!	!	!	!	!	!	!	!	!	!	!	!	!	!	!	!	!	!LO:SIC:v:s=2gg#
.	.	2E\	.	2B\yy	.	2e\yy	.	2g#\yy	.	2E\	.	2B\	-ri-	2B/	.	2ee\	.	2E\	-ri-	2B\	.	2e\	.	2g#\yy	-ri-	2g#\	-ri-	2E\	.	2B/	.	2ee\	2gg\
!	!	!	!	!	!	!	!	!	!	!	!	!	!	!	!	!	!	!	!	!	!	!	!	!	!	!	!	!	!	!	!	!	!LO:SIC:v:s=1gg#
1E	.	1E	.	1Byy	.	1eyy	.	1g#yy	.	1E	.	1B	-e	1e	.	1ee	.	1E	-e	1B	.	1e	.	1g#yy	-e	1g#	-e	1E	.	1B	1e	1ee	1gg
.	.	.	.	.	.	.	.	.	.	.	.	.	.	.	.	.	.	.	.	.	.	.	.	.	.	.	.	.	2E/	.	.	.	.
=40	=40	=40	=40	=40	=40	=40	=40	=40	=40	=40	=40	=40	=40	=40	=40	=40	=40	=40	=40	=40	=40	=40	=40	=40	=40	=40	=40	=40	=40	=40	=40	=40	=40
[>1AA	#	1.AA	.	1.c#Xyy	.	1.eyy	.	1.ayy	.	1.AA	.	1.A	Ky-	1.e	.	1.ee	.	1.A	Ky-	1.c#X	.	1.e	.	1.ayy	Ky-	1.a	Ky-	1.AA	1.E	1.c#X	1.e	1.ee	1.aa
1AA]	.	.	.	.	.	.	.	.	.	.	.	.	.	.	.	.	.	.	.	.	.	.	.	.	.	.	.	.	.	.	.	.	.
.	.	2AA/	.	2c#\yy	.	2e\yy	.	2a\yy	.	2AA/	.	2A\	-ri-	2e\	.	2ee\	.	2A\	-ri-	2c#\	.	2e\	.	2a\yy	-ri-	2a\	-ri-	2AA/	2E/	2e\	2e\	2ee\	2aa\
1AA	.	1AA	.	1c#yy	.	1eyy	.	1ayy	.	1AA	.	1A	-e	1e	.	1ee	.	1A	-e	1c#	.	1e	.	1ayy	-e	1a	-e	1AA	1E	1A	1a	1ee	1aa
=41	=41	=41	=41	=41	=41	=41	=41	=41	=41	=41	=41	=41	=41	=41	=41	=41	=41	=41	=41	=41	=41	=41	=41	=41	=41	=41	=41	=41	=41	=41	=41	=41	=41
1FF	.	0.r	.	0.ryy	.	0.ryy	.	0.ryy	.	0.r	.	0.r	.	0.r	.	0.r	.	0.r	.	0.r	.	0.r	.	0.ryy	.	0.r	.	2FF/	0A	2A/	1a	0ff	0aa
.	.	.	.	.	.	.	.	.	.	.	.	.	.	.	.	.	.	.	.	.	.	.	.	.	.	.	.	2GG/	.	2B/	.	.	.
1AA	.	.	.	.	.	.	.	.	.	.	.	.	.	.	.	.	.	.	.	.	.	.	.	.	.	.	.	2AA/	.	2c\	1f	.	.
.	.	.	.	.	.	.	.	.	.	.	.	.	.	.	.	.	.	.	.	.	.	.	.	.	.	.	.	2BB/	.	2d\	.	.	.
1C	.	.	.	.	.	.	.	.	.	.	.	.	.	.	.	.	.	.	.	.	.	.	.	.	.	.	.	1C	1r	2e\	1r	1ee	1gg
.	.	.	.	.	.	.	.	.	.	.	.	.	.	.	.	.	.	.	.	.	.	.	.	.	.	.	.	.	.	2d\	.	.	.
!!LO:PB:g=original
=42	=42	=42	=42	=42	=42	=42	=42	=42	=42	=42	=42	=42	=42	=42	=42	=42	=42	=42	=42	=42	=42	=42	=42	=42	=42	=42	=42	=42	=42	=42	=42	=42	=42
*	*above	*	*	*	*	*	*	*	*	*	*	*	*	*	*	*	*	*	*	*	*	*	*	*	*	*	*	*	*	*	*	*	*
1EE	6	0.r	.	0.r	.	0.r	.	0.r	.	0.r	.	0.r	.	0.r	.	0.r	.	0.r	.	0.r	.	0.r	.	0.r	.	0.r	.	1EE	1G	1c	1e	1cc	1gg
1FF	6 5	.	.	.	.	.	.	.	.	.	.	.	.	.	.	.	.	.	.	.	.	.	.	.	.	.	.	1FF	1D	1.d	1.d	1.cc	1ff
1GG	.	.	.	.	.	.	.	.	.	.	.	.	.	.	.	.	.	.	.	.	.	.	.	.	.	.	.	1GG	1G	.	.	.	1dd
.	.	.	.	.	.	.	.	.	.	.	.	.	.	.	.	.	.	.	.	.	.	.	.	.	.	.	.	.	.	2d\	2g\	2b\	.
=43	=43	=43	=43	=43	=43	=43	=43	=43	=43	=43	=43	=43	=43	=43	=43	=43	=43	=43	=43	=43	=43	=43	=43	=43	=43	=43	=43	=43	=43	=43	=43	=43	=43
!	!	!	!	!	!	!	!	!	!	!	!	!	!	!	!	!	!	!	!	!	!	!	!	!LO:TX:a:i:t=col primo:note=podkreślone	!	!	!	!	!	!	!	!	!
0C	.	0.r	.	0.r	.	0.r	.	0.r	.	1.C	Ky-	1.c	.	1.e	.	1.ee	.	1.C	Ky-	1.G	.	1.e	.	1.ccyy	Ky-	1.cc	Ky-	1.C	1.G	1.c	1.e	1.cc	1.ee
.	.	.	.	.	.	.	.	.	.	2C/	-ri-	2c\	.	2e\	.	2ee\	.	2C/	-ri-	2G/	.	2e\	.	2cc\yy	-ri-	2cc\	-ri-	2C\	2G\	2c\	2e\	2cc\	2ee\
1C	.	.	.	.	.	.	.	.	.	1C	-e	1G	.	1e	.	1ee	.	1C	-e	1G	.	1e	.	1ccyy	-e	1cc	-e	1C	1G	1c	1e	1cc	1ee
=44	=44	=44	=44	=44	=44	=44	=44	=44	=44	=44	=44	=44	=44	=44	=44	=44	=44	=44	=44	=44	=44	=44	=44	=44	=44	=44	=44	=44	=44	=44	=44	=44	=44
*	*	*	*	*	*	*	*	*	*	*	*ij	*	*	*	*	*	*	*	*ij	*	*	*	*	*	*ij	*	*ij	*	*	*	*	*	*
0GG#X	6	1.GG#X	.	1.B	Ky-	1.e	.	1.ee	Ky-	1.GG#X	Ky-	1.B	.	1.e	.	1.b	.	1.GG#X	Ky-	1.B	.	1.e	.	1.eeyy	Ky-	1.ee	Ky-	1GG#X	1.E	1.B	1.e	1.ee	1.ee
.	.	.	.	.	.	.	.	.	.	.	.	.	.	.	.	.	.	.	.	.	.	.	.	.	.	.	.	1GG#	.	.	.	.	.
.	.	2GG#/	.	2B\	-ri-	2e\	.	2ee\	-ri-	2GG#/	-ri-	2E/	.	2e\	.	2b\	.	2GG#/	-ri-	2B\	.	2e\	.	2ee\yy	-ri-	2ee\	-ri-	.	2E/	2e\	2e\	2b\	2ee\
1GG#	.	1GG#	.	1B	-e	1e	.	1ee	-e	1GG#	-e	1E	.	1e	.	1b	.	1GG#	-e	1B	.	1e	.	1eeyy	-e	1ee	-e	1GG#	1E	1e	1e	2b\	1ee
.	.	.	.	.	.	.	.	.	.	.	.	.	.	.	.	.	.	.	.	.	.	.	.	.	.	.	.	.	.	.	.	2ee\	.
=45	=45	=45	=45	=45	=45	=45	=45	=45	=45	=45	=45	=45	=45	=45	=45	=45	=45	=45	=45	=45	=45	=45	=45	=45	=45	=45	=45	=45	=45	=45	=45	=45	=45
*	*	*	*	*	*ij	*	*	*	*ij	*	*	*	*	*	*	*	*	*	*	*	*	*	*	*	*	*	*	*	*	*	*	*	*
!	!	!	!	!	!	!	!	!	!	!	!	!	!	!	!	!	!	!	!	!	!	!LO:N:vis=0	!	!	!	!	!	!	!	!	!	!	!
0AA	.	1.AA	.	1.A	Ky-	1.e	.	1.cc	Ky-	1.AA	Ky-	1.E	.	1.e	.	1.cc	.	1.AA	Ky-	1.A	.	1.f	.	1.ccyy	Ky-	1.cc	Ky-	0AA	1.E	1.e	1.e	1.ee	1.cc
.	.	2AA/	.	2A\	-ri-	2e\	.	2cc\	-ri-	2AA/	-ri-	2E/	.	2c\	.	2cc\	.	2AA/	-ri-	2A\	.	2e\	.	2cc\yy	-ri-	2cc\	-ri-	.	2E/	2d\	2f\	2dd\	2dd\
1AA	.	1AA	.	1A	-e	1e	.	1cc	-e	1AA	-e	1E	.	1c	.	1cc	.	1AA	-e	1A	.	1e	.	1ccyy	-e	1cc	-e	1AA	1E	1c	1e	1cc	1ee
*	*	*	*	*	*Xij	*	*	*	*Xij	*	*Xij	*	*	*	*	*	*	*	*Xij	*	*	*	*	*	*Xij	*	*Xij	*	*	*	*	*	*
!!LO:PB:g=original
=46	=46	=46	=46	=46	=46	=46	=46	=46	=46	=46	=46	=46	=46	=46	=46	=46	=46	=46	=46	=46	=46	=46	=46	=46	=46	=46	=46	=46	=46	=46	=46	=46	=46
1FF	.	0.r	.	0.r	.	0.r	.	0.r	.	0.r	.	0.r	.	0.r	.	0.r	.	2FF/	e-	0c	.	0f	.	0ayy	e-	0a	e-	0.r	0.r	0.r	0.r	0.r	0.r
.	.	.	.	.	.	.	.	.	.	.	.	.	.	.	.	.	.	2GG/	.	.	.	.	.	.	.	.	.	.	.	.	.	.	.
1AA	6	.	.	.	.	.	.	.	.	.	.	.	.	.	.	.	.	2AA/	.	.	.	.	.	.	.	.	.	.	.	.	.	.	.
.	.	.	.	.	.	.	.	.	.	.	.	.	.	.	.	.	.	2BB/	.	.	.	.	.	.	.	.	.	.	.	.	.	.	.
1C	.	.	.	.	.	.	.	.	.	.	.	.	.	.	.	.	.	1C	-lei-	1c	.	1e	.	1gyy	-lei-	1g	-lei-	.	.	.	.	.	.
=47	=47	=47	=47	=47	=47	=47	=47	=47	=47	=47	=47	=47	=47	=47	=47	=47	=47	=47	=47	=47	=47	=47	=47	=47	=47	=47	=47	=47	=47	=47	=47	=47	=47
1AA	.	0.r	.	0.r	.	0.r	.	0.r	.	0.r	.	0.r	.	0.r	.	0.r	.	1AA	-son	1c	.	1e	.	1ayy	-son	1a	-son	0.r	0.r	0.r	0.r	0.r	0.r
*	*	*	*	*	*	*	*	*	*	*	*	*	*	*	*	*	*	*	*	*	*	*	*	*	*ij	*	*ij	*	*	*	*	*	*
1D	6 5	.	.	.	.	.	.	.	.	.	.	.	.	.	.	.	.	1D	e-	1.B	.	1f	.	1ayy	e-	1a	e-	.	.	.	.	.	.
1E	#	.	.	.	.	.	.	.	.	.	.	.	.	.	.	.	.	1E	-lei-	.	.	1e	.	1g#Xyy	-lei-	1g#X	-lei-	.	.	.	.	.	.
.	.	.	.	.	.	.	.	.	.	.	.	.	.	.	.	.	.	.	.	2B\	.	.	.	.	.	.	.	.	.	.	.	.	.
=48	=48	=48	=48	=48	=48	=48	=48	=48	=48	=48	=48	=48	=48	=48	=48	=48	=48	=48	=48	=48	=48	=48	=48	=48	=48	=48	=48	=48	=48	=48	=48	=48	=48
!	!	!	!	!	!	!LO:TX:a:i:t=col coro secondo:note=podkreślone	!	!LO:TX:a:i:t=col canto del Coro 2:note=podkreślone	!	!	!	!	!	!	!	!	!	!	!	!	!	!	!	!	!	!	!	!	!	!	!	!	!
1AA	.	2AA/yy	e-	0cyy	.	0eyy	.	0ayy	Ky-	2AA/	e-	0c	.	0e	.	0a	Ky-	0AA	-son	0A	.	0e	.	0ayy	-son	0a	-son	0.r	0.r	0.r	0.r	0.r	0.r
*	*	*	*	*	*	*	*	*	*	*	*	*	*	*	*	*	*	*	*	*	*	*	*	*	*Xij	*	*Xij	*	*	*	*	*	*
.	.	2BB/yy	.	.	.	.	.	.	.	2BB/	.	.	.	.	.	.	.	.	.	.	.	.	.	.	.	.	.	.	.	.	.	.	.
1C	6	2C/yy	.	.	.	.	.	.	.	2C/	.	.	.	.	.	.	.	.	.	.	.	.	.	.	.	.	.	.	.	.	.	.	.
.	.	2D\yy	.	.	.	.	.	.	.	2D\	.	.	.	.	.	.	.	.	.	.	.	.	.	.	.	.	.	.	.	.	.	.	.
1E	.	1Eyy	lei-	1Byy	.	1eyy	.	1gyy	-ri-	1E	lei-	1B	.	1e	.	1g	-ri-	1r	.	1r	.	1r	.	1ryy	.	1r	.	.	.	.	.	.	.
=49	=49	=49	=49	=49	=49	=49	=49	=49	=49	=49	=49	=49	=49	=49	=49	=49	=49	=49	=49	=49	=49	=49	=49	=49	=49	=49	=49	=49	=49	=49	=49	=49	=49
1C	.	1Cyy	-son	1cyy	.	1eyy	.	1gyy	-e	1C	-son	1c	.	1e	.	1g	-e	0.r	.	0.r	.	0.r	.	0.r	.	0.r	.	0.r	0.r	0.r	0.r	0.r	0.r
1F	6 5	1Fyy	e-	1cyy	.	1dyy	.	1ayy	e-	1F	e-	1c	.	1d	.	1a	e-	.	.	.	.	.	.	.	.	.	.	.	.	.	.	.	.
1G	.	1Gyy	-lei	1Byy	.	1dyy	.	1gyy	-lei-	1G	-lei	1B	.	1d	.	1g	-lei-	.	.	.	.	.	.	.	.	.	.	.	.	.	.	.	.
!!LO:PB:g=original
=50	=50	=50	=50	=50	=50	=50	=50	=50	=50	=50	=50	=50	=50	=50	=50	=50	=50	=50	=50	=50	=50	=50	=50	=50	=50	=50	=50	=50	=50	=50	=50	=50	=50
0C	.	0Cyy	.	0cyy	.	0eyy	.	0gyy	-son.	0C	.	0c	.	0e	.	0g	-son.	0.r	.	0.r	.	0.r	.	0.r	.	0.r	.	2C\	0G	0g	1e	1.ee	1.gg
.	.	.	.	.	.	.	.	.	.	.	.	.	.	.	.	.	.	.	.	.	.	.	.	.	.	.	.	2D\	.	.	.	.	.
.	.	.	.	.	.	.	.	.	.	.	.	.	.	.	.	.	.	.	.	.	.	.	.	.	.	.	.	2E\	.	.	0g	.	.
.	.	.	.	.	.	.	.	.	.	.	.	.	.	.	.	.	.	.	.	.	.	.	.	.	.	.	.	2F\	.	.	.	4dd\	4ff\
.	.	.	.	.	.	.	.	.	.	.	.	.	.	.	.	.	.	.	.	.	.	.	.	.	.	.	.	.	.	.	.	4cc\	4ee\
1G	.	1ryy	.	1ryy	.	1ryy	.	1ryy	.	1r	.	1r	.	1r	.	1r	.	.	.	.	.	.	.	.	.	.	.	1G	1B	1g	.	2b\	2dd\
.	.	.	.	.	.	.	.	.	.	.	.	.	.	.	.	.	.	.	.	.	.	.	.	.	.	.	.	.	.	.	.	2cc\	2ee\
=51	=51	=51	=51	=51	=51	=51	=51	=51	=51	=51	=51	=51	=51	=51	=51	=51	=51	=51	=51	=51	=51	=51	=51	=51	=51	=51	=51	=51	=51	=51	=51	=51	=51
*	*^	*	*	*	*	*	*	*	*	*	*	*	*	*	*	*	*	*	*	*	*	*	*	*	*	*	*	*	*	*	*	*	*
1F	6	.	0.r	.	0.r	.	0.r	.	0.r	.	0.r	.	0.r	.	0.r	.	0.r	.	0.r	.	0.r	.	0.r	.	0.r	.	0.r	.	1F	1A	1a	1d	1dd	1ff
*	*	*below	*	*	*	*	*	*	*	*	*	*	*	*	*	*	*	*	*	*	*	*	*	*	*	*	*	*	*	*	*	*	*	*
1G	6 5	-	.	.	.	.	.	.	.	.	.	.	.	.	.	.	.	.	.	.	.	.	.	.	.	.	.	.	1G	1B-X	1g	1.e	1dd	1ee
1A	.	#	.	.	.	.	.	.	.	.	.	.	.	.	.	.	.	.	.	.	.	.	.	.	.	.	.	.	1A	1A	1e	.	1cc#X	1ee
.	.	.	.	.	.	.	.	.	.	.	.	.	.	.	.	.	.	.	.	.	.	.	.	.	.	.	.	.	.	.	.	2a\	.	.
*	*v	*v	*	*	*	*	*	*	*	*	*	*	*	*	*	*	*	*	*	*	*	*	*	*	*	*	*	*	*	*	*	*	*	*
=52	=52	=52	=52	=52	=52	=52	=52	=52	=52	=52	=52	=52	=52	=52	=52	=52	=52	=52	=52	=52	=52	=52	=52	=52	=52	=52	=52	=52	=52	=52	=52	=52	=52
!	!	!	!	!	!	!	!	!	!	!	!	!	!	!	!	!	!	!	!	!	!	!	!	!LO:TX:a:i:t=col 1mo:note=podkreślone	!	!	!	!	!	!	!	!	!
1D	.	0.r	.	0.r	.	0.r	.	0.r	.	0.r	.	0.r	.	0.r	.	0.r	.	2D\	.	0c	.	0f	.	0.ayy	e-	0.a	e-	1D	1A	1f	1a	1dd	1dd
.	.	.	.	.	.	.	.	.	.	.	.	.	.	.	.	.	.	2E\	.	.	.	.	.	.	.	.	.	.	.	.	.	.	.
1D	.	.	.	.	.	.	.	.	.	.	.	.	.	.	.	.	.	2F\	.	.	.	.	.	.	.	.	.	1r	1r	1r	1r	1r	1r
.	.	.	.	.	.	.	.	.	.	.	.	.	.	.	.	.	.	2G\	.	.	.	.	.	.	.	.	.	.	.	.	.	.	.
1A	.	.	.	.	.	.	.	.	.	.	.	.	.	.	.	.	.	1A	.	[1c	.	[1e	.	.	.	.	.	1r	1r	1r	1r	1r	1r
=53	=53	=53	=53	=53	=53	=53	=53	=53	=53	=53	=53	=53	=53	=53	=53	=53	=53	=53	=53	=53	=53	=53	=53	=53	=53	=53	=53	=53	=53	=53	=53	=53	=53
1E	6	0.r	.	0.r	.	0.r	.	0.r	.	0.r	.	0.r	.	0.r	.	0.r	.	1E	.	0c]	.	1e]	.	1gyy	.	1g	.	0.r	0.r	0.r	0.r	0.r	0.r
1F	6 5	.	.	.	.	.	.	.	.	.	.	.	.	.	.	.	.	1F	.	.	.	0d	.	1ayy	-lei-	1a	-lei-	.	.	.	.	.	.
1G	.	.	.	.	.	.	.	.	.	.	.	.	.	.	.	.	.	1G	.	1B	.	.	.	1gyy	-son	1g	-son	.	.	.	.	.	.
!!LO:PB:g=original
=54	=54	=54	=54	=54	=54	=54	=54	=54	=54	=54	=54	=54	=54	=54	=54	=54	=54	=54	=54	=54	=54	=54	=54	=54	=54	=54	=54	=54	=54	=54	=54	=54	=54
!	!	!	!	!	!	!	!	!LO:TX:a:i:t=col coro secondo:note=podkreślone	!	!	!	!	!	!	!	!	!	!	!	!	!	!	!	!	!	!	!	!	!	!	!	!	!
1C	.	2C\yy	e-	0eyy	.	0.gyy	.	0ccyy	Ky-	2C\	e-	0e	.	0.g	.	0cc	Ky-	1C	son	1c	.	1e	.	1gyy	son.	1g	son.	0.r	0.r	0.r	0.r	0.r	0.r
.	.	2D\yy	.	.	.	.	.	.	.	2D\	.	.	.	.	.	.	.	.	.	.	.	.	.	.	.	.	.	.	.	.	.	.	.
1E	6	2E\yy	.	.	.	.	.	.	.	2E\	.	.	.	.	.	.	.	1r	.	1r	.	1r	.	1ryy	.	1r	.	.	.	.	.	.	.
.	.	2F\yy	.	.	.	.	.	.	.	2F\	.	.	.	.	.	.	.	.	.	.	.	.	.	.	.	.	.	.	.	.	.	.	.
1G	.	1Gyy	.	1dyy	.	.	.	1byy	-ri-	1G	.	1d	.	.	.	1b	-ri-	1r	.	1r	.	1r	.	1ryy	.	1r	.	.	.	.	.	.	.
=55	=55	=55	=55	=55	=55	=55	=55	=55	=55	=55	=55	=55	=55	=55	=55	=55	=55	=55	=55	=55	=55	=55	=55	=55	=55	=55	=55	=55	=55	=55	=55	=55	=55
1C	6	1Cyy	-lei-	1cyy	.	1eyy	.	0ayy	-[e-	1C	-lei-	1c	.	1e	.	0a	-[e-	0.r	.	0.r	.	0.r	.	0.r	.	0.r	.	0.r	0.r	0.r	0.r	0.r	0.r
1D	6 5	1Dyy	.	0Byy	.	1fyy	.	.	.	1D	.	0B	.	1f	.	.	.	.	.	.	.	.	.	.	.	.	.	.	.	.	.	.	.
*	*below	*	*	*	*	*	*	*	*	*	*	*	*	*	*	*	*	*	*	*	*	*	*	*	*	*	*	*	*	*	*	*	*
1E	#	1Eyy	.	.	.	1eyy	.	1g#Xyy	-lei]-	1E	.	.	.	1e	.	1g#X	-lei]-	.	.	.	.	.	.	.	.	.	.	.	.	.	.	.	.
=56	=56	=56	=56	=56	=56	=56	=56	=56	=56	=56	=56	=56	=56	=56	=56	=56	=56	=56	=56	=56	=56	=56	=56	=56	=56	=56	=56	=56	=56	=56	=56	=56	=56
!	!	!	!	!	!	!	!	!	!	!	!	!	!	!	!	!	!	!	!	!	!	!	!	!	!	!	!	!	!LO:SIC:v:s=1.c#	!	!	!	!
0AA	#	0.AAyy	-son	0.c#Xyy	.	0.eyy	.	0.ayy	-son.	0.AA	-son	0.c#X	.	0.e	.	0.a	-son.	0.r	.	0.r	.	0.r	.	0.r	.	0.r	.	1.A	1.c	1.e	1.a	1.ee	1.aa
!	!	!	!	!	!	!	!	!	!	!	!	!	!	!	!	!	!	!	!	!	!	!	!	!	!	!	!	!	!LO:SIC:v:s=2c#	!	!	!	!
.	.	.	.	.	.	.	.	.	.	.	.	.	.	.	.	.	.	.	.	.	.	.	.	.	.	.	.	2A\	2c\	2e\	2a\	2ee\	2aa\
!	!	!	!	!	!	!	!	!	!	!	!	!	!	!	!	!	!	!	!	!	!	!	!	!	!	!	!	!	!LO:SIC:v:s=1c#	!	!	!	!
1AA	.	.	.	.	.	.	.	.	.	.	.	.	.	.	.	.	.	.	.	.	.	.	.	.	.	.	.	1A	1c	1e	1a	1ee	1aa
=57	=57	=57	=57	=57	=57	=57	=57	=57	=57	=57	=57	=57	=57	=57	=57	=57	=57	=57	=57	=57	=57	=57	=57	=57	=57	=57	=57	=57	=57	=57	=57	=57	=57
!	!	!LO:TX:a:i:t=col basso del Coro 1.:note=podkreślone	!	!LO:TX:a:i:t=col tenore del Coro 1.:note=podkreślone	!	!LO:TX:a:i:t=coll alto del Coro 1.:note=podkreślone	!	!LO:TX:a:i:t=col Canto 1. del Coro 1.:note=podkreślone	!	!	!	!	!	!	!	!	!	!	!	!	!	!	!	!LO:TX:a:i:t=col primo:note=podkreślone	!	!	!	!	!	!	!	!	!
0F	.	1.Fyy	Ky-	1.Ayy	.	1.fyy	.	1.ccyy	Ky-	1.F	Ky-	1.A	.	1.c	.	1.a	Ky-	1.F	Ky-	1.A	.	1.f	.	1.cc	Ky-	1.cc	Ky-	1.F	1.A	1.a	1.f	1.ff	1.aa
.	.	2F\yy	-ri-	2A\yy	.	2f\yy	.	2cc\yy	-ri-	2F\	-ri-	2A\	.	2c\	.	2a\	-ri-	2F\	-ri-	2A\	.	2f\	.	2cc\	-ri-	2cc\	-ri-	2F\	2A\	2a\	2f\	2ff\	2aa\
1F	.	1Fyy	-e	1Ayy	.	1fyy	.	1ccyy	-e	1F	-e	2A\	.	1c	.	1a	-e	1F	-e	1A	.	1f	.	1cc	-e	1cc	-e	1F	1A	1a	1f	1ff	1aa
.	.	.	.	.	.	.	.	.	.	.	.	2r	.	.	.	.	.	.	.	.	.	.	.	.	.	.	.	.	.	.	.	.	.
!!LO:PB:g=original
=58	=58	=58	=58	=58	=58	=58	=58	=58	=58	=58	=58	=58	=58	=58	=58	=58	=58	=58	=58	=58	=58	=58	=58	=58	=58	=58	=58	=58	=58	=58	=58	=58	=58
!	!	!	!	!	!	!	!	!	!	!LO:TX:a:i:t=col basso dell' Coro 1.:note=podkreślone	!	!	!	!	!	!	!	!	!	!	!	!	!	!	!	!	!	!	!	!	!	!	!
0E	.	1.Dyy	.	1.Ayy	.	1.fyy	.	1.ddyy	Ky-	1.Dyy	.	1.F	.	1.f	.	1.a	Ky-	1.D	.	1.A	.	1.f	.	1.ddyy	Ky-	1.dd	Ky-	1.D	1.A	1.a	1.f	1.ff	1.aa
.	.	2D\yy	.	2A\yy	.	2f\yy	.	2dd\yy	-ri-	2D\yy	.	2F/	.	2d\	.	2a\	-ri-	2D\	.	2A\	.	2f\	.	2dd\yy	-ri-	2dd\	-ri-	2D\	2A\	2a\	2f\	2ff\	2aa\
1D	.	1Dyy	.	1Ayy	.	1fyy	.	1ddyy	-e	1Dyy	.	1F	.	1f	.	1a	-e	1D	.	1A	.	1f	.	1ddyy	-e	1dd	-e	1D	1A	1a	1f	1dd	1aa
=59	=59	=59	=59	=59	=59	=59	=59	=59	=59	=59	=59	=59	=59	=59	=59	=59	=59	=59	=59	=59	=59	=59	=59	=59	=59	=59	=59	=59	=59	=59	=59	=59	=59
*	*	*	*	*	*	*	*	*	*ij	*	*	*	*	*	*	*	*ij	*	*	*	*	*	*	*	*ij	*	*ij	*	*	*	*	*	*
0C#X	.	1.C#Xyy	.	1.Ayy	.	1.eyy	.	1.eeyy	Ky-	1.C#Xyy	.	1.A	.	1.e	.	1.a	Ky-	1.C#X	.	1.A	.	1.e	.	1.eeyy	Ky-	1.ee	Ky-	1.C#X	1.A	1.a	1.e	1.ee	1.aa
.	.	2C#/yy	.	2A\yy	.	2e\yy	.	2ee\yy	-ri-	2C#\yy	.	2A\	.	2a\	.	2a\	-ri-	2C#\	.	2A\	.	2e\	.	2ee\yy	-ri-	2ee\	-ri-	2C#\	2A\	2a\	2e\	2ee\	2aa\
1C#	.	1C#yy	.	1Ayy	.	1eyy	.	1eeyy	-e	1C#yy	.	1A	.	1e	.	1ee	-e	1C#	.	1A	.	1e	.	1eeyy	-e	1ee	-e	1C#	1A	1e	1e	1ee	1ee
*	*	*	*	*	*	*	*	*	*Xij	*	*	*	*	*	*	*	*Xij	*	*	*	*	*	*	*	*Xij	*	*Xij	*	*	*	*	*	*
=60	=60	=60	=60	=60	=60	=60	=60	=60	=60	=60	=60	=60	=60	=60	=60	=60	=60	=60	=60	=60	=60	=60	=60	=60	=60	=60	=60	=60	=60	=60	=60	=60	=60
1D	.	1Dyy	.	0Ayy	.	1fyy	.	1ddyy	e-	1Dyy	.	1A	.	1f	.	1dd	e-	1D	.	0A	.	1f	.	1ddyy	e-	1dd	e-	1D	0A	1f	1f	1dd	1dd
0E	.	0Eyy	.	.	.	0eyy	.	0byy	-lei	0Eyy	.	0G#X	.	0e	.	0b	-lei-	0E	.	.	.	0e	.	0byy	-lei-	0b	-lei-	0E	.	0e	0e	0b	0b
.	.	.	.	1G#Xyy	.	.	.	.	.	.	.	.	.	.	.	.	.	.	.	1G#X	.	.	.	.	.	.	.	.	1G#X	.	.	.	.
=61	=61	=61	=61	=61	=61	=61	=61	=61	=61	=61	=61	=61	=61	=61	=61	=61	=61	=61	=61	=61	=61	=61	=61	=61	=61	=61	=61	=61	=61	=61	=61	=61	=61
*M2/1	*	*M2/1	*	*M2/1	*	*M2/1	*	*M2/1	*	*M2/1	*	*M2/1	*	*M2/1	*	*M2/1	*	*M2/1	*	*M2/1	*	*M2/1	*	*M2/1	*	*M2/1	*	*M2/1	*M2/1	*M2/1	*M2/1	*M2/1	*M2/1
*met()	*	*met(C|)	*	*met(C|)	*	*met(C|)	*	*met(C|)	*	*met(C|)	*	*met()	*	*met()	*	*met()	*	*met()	*	*met()	*	*met()	*	*met()	*	*met(C|)	*	*met(C|)	*met(C|)	*met(C|)	*met(C|)	*met(C|)	*met(C|)
4AA/	.	4AA/yy	.	4A\yy	.	4e\yy	.	4cc\	.	4AA/yy	.	4A\	.	4e\	.	4cc\	-son	4AA/	.	4A\	.	4e\	.	4a\yy	-son,	4a\	-son,	4AA/	4A\	4e\	4e\	4cc\	4a/
2FF/	.	2FF/yy	.	2c\yy	.	2f\yy	.	2a\yy	Ky-	2FF/yy	.	2c\	.	2f\	.	2a\	Ky-	2FF/	.	2c\	.	2f\	.	2a\yy	Ky-	2a\	Ky-	2FF/	2c\	2A/	2f\	2a/	2aa\
4FF/	.	4FF/yy	.	4c\yy	.	4f\yy	.	4a\yy	-ri-	4FF/yy	.	4c\	.	4f\	.	4cc\	-ri-	4FF/	.	4c\	.	4f\	.	4a\yy	-ri-	4a\	-ri-	4FF/	4c\	4e\	4f\	4cc\	4aa\
2C/	.	2C/yy	.	2c\yy	.	1eyy	.	4.g\yy	-e	2C/yy	.	2c\	.	2e\	.	2ee\	-e	2C/	.	2c\	.	1e	.	4.g\yy	-e	4.g\	-e	2C/	2c\	1e	1e	1ee	2gg\
.	.	.	.	.	.	.	.	8a\yy	e-	.	.	.	.	.	.	.	.	.	.	.	.	.	.	8a\yy	e-	8a\	e-	.	.	.	.	.	.
2GG#X/	.	2GG#X/yy	.	2B\yy	.	.	.	2b\yy	-lei	2GG#X/yy	.	[2B\	.	2r	.	2ee\	e-	2GG#X/	.	[2B\	.	.	.	2b\yy	-lei	2b\	-lei-	2GG#X/	[2B\	.	.	.	2ee\
!!LO:PB:g=original
=62	=62	=62	=62	=62	=62	=62	=62	=62	=62	=62	=62	=62	=62	=62	=62	=62	=62	=62	=62	=62	=62	=62	=62	=62	=62	=62	=62	=62	=62	=62	=62	=62	=62
4AA/	.	4AA/yy	.	2B\yy	.	1eyy	.	1ccyy	-lei-	4AA/	.	2B\]	.	1e	.	0ee	-lei-	4AA/	.	2B\]	.	1e	.	1ccyy	-lei-	1cc	-lei-	4AA/	2B\]	1e	1e	0ee	1cc
4BB/	.	4BB/yy	.	.	.	.	.	.	.	4BB/	.	.	.	.	.	.	.	4BB/	.	.	.	.	.	.	.	.	.	4BB/	.	.	.	.	.
4C/	.	4C/yy	.	1Ayy	.	.	.	.	.	4C/	.	1A	.	.	.	.	.	4C/	.	1A	.	.	.	.	.	.	.	4C/	1A	.	.	.	.
4D/	.	4D/yy	.	.	.	.	.	.	.	4D/	.	.	.	.	.	.	.	4D/	.	.	.	.	.	.	.	.	.	4D/	.	.	.	.	.
1E	.	1Eyy	-lei-	.	.	1eyy	.	1byy	.	1E	.	.	.	1e	.	.	.	1E	-lei-	.	.	1e	.	1byy	.	1b	.	1E	.	1e	1e	.	1b
.	.	.	.	2G#X\yy	.	.	.	.	.	.	.	2G#X\	.	.	.	.	.	.	.	2G#X\	.	.	.	.	.	.	.	.	2G#X\	.	.	.	.
=63	=63	=63	=63	=63	=63	=63	=63	=63	=63	=63	=63	=63	=63	=63	=63	=63	=63	=63	=63	=63	=63	=63	=63	=63	=63	=63	=63	=63	=63	=63	=63	=63	=63
0AA	.	0AA	.	0A	.	0e	.	0cc#X	-[son]	0AA	.	0A	.	0e	.	0cc#X	-son	0AA	-son.	0A	.	0e	.	0a	-[son]	0a	-son.	0AA	0A	0e	0e	0ee	0cc#X
==	==	==	==	==	==	==	==	==	==	==	==	==	==	==	==	==	==	==	==	==	==	==	==	==	==	==	==	==	==	==	==	==	==
*-	*-	*-	*-	*-	*-	*-	*-	*-	*-	*-	*-	*-	*-	*-	*-	*-	*-	*-	*-	*-	*-	*-	*-	*-	*-	*-	*-	*-	*-	*-	*-	*-	*-
!!!system-decoration: <(str,ww)>[(g2)][(g3)][(g4)]<s20>
!!!RDF**kern: > = above
!!!RDF**kern: < = below
!!!RDF**kern: l = terminal long
!!!ENC: Andrzej Gręziak
!!!END: 2022-10-26
!!!ENC: Andrzej Kubiczek
!!!END: 2022-11-19
